;FLAVOR:Marlin
;TIME:14723
;Filament used: 16.9284m
;Layer height: 0.24
;MINX:20.175
;MINY:10.175
;MINZ:0.24
;MAXX:199.825
;MAXY:209.825
;MAXZ:10.08
;Generated with Cura_SteamEngine 5.2.1
M140 S60
M105
M190 S60
M104 S210
M105
M109 S210
M82 ;absolute extrusion mode
; Ender 3 Custom Start G-code
G92 E0 ; Reset Extruder
G28 ; Home all axes
G1 Z2.0 F3000 ; Move Z Axis up little to prevent scratching of Heat Bed
G1 X0.1 Y20 Z0.3 F5000.0 ; Move to start position
G1 X0.1 Y200.0 Z0.3 F1500.0 E15 ; Draw the first line
G1 X0.4 Y200.0 Z0.3 F5000.0 ; Move to side a little
G1 X0.4 Y20 Z0.3 F1500.0 E30 ; Draw the second line
G92 E0 ; Reset Extruder
G1 Z2.0 F3000 ; Move Z Axis up little to prevent scratching of Heat Bed
G1 X5 Y20 Z0.3 F5000.0 ; Move over to prevent blob squish
G92 E0
G92 E0
G1 F2700 E-5
;LAYER_COUNT:42
;LAYER:0
M107
G0 F6000 X23.291 Y31.766 Z0.24
;TYPE:SKIRT
G1 F2700 E0
G1 F600 X23.945 Y31.322 E0.04338
G1 X24.641 Y30.946 E0.08679
G1 X25.372 Y30.642 E0.13024
G1 X26.129 Y30.413 E0.17364
G1 X26.905 Y30.262 E0.21703
G1 X27.79 Y30.187 E0.26577
G1 X28.33 Y30.175 E0.29541
G1 X29.972 Y30.175 E0.38553
G1 X32.609 Y30.138 E0.53026
G1 X35.238 Y30.026 E0.67466
G1 X37.808 Y29.844 E0.81606
G1 X40.413 Y29.586 E0.95972
G1 X43.015 Y29.253 E1.10368
G1 X45.583 Y28.849 E1.24634
G1 X48.133 Y28.375 E1.38868
G1 X50.703 Y27.822 E1.53295
G1 X53.179 Y27.216 E1.67284
G1 X55.754 Y26.507 E1.81941
G1 X58.211 Y25.755 E1.96042
G1 X60.729 Y24.905 E2.10627
G1 X63.113 Y24.026 E2.24571
G1 X65.576 Y23.037 E2.39137
G1 X67.971 Y21.995 E2.53471
G1 X70.311 Y20.898 E2.67654
G1 X72.645 Y19.722 E2.81996
G1 X74.936 Y18.485 E2.96285
G1 X77.193 Y17.183 E3.10584
G1 X79.425 Y15.811 E3.24962
G1 X81.599 Y14.387 E3.39225
G1 X83.732 Y12.902 E3.53488
G1 X84.713 Y12.176 E3.60186
G1 X85.426 Y11.662 E3.65009
G1 X86.09 Y11.233 E3.69348
G1 X86.794 Y10.873 E3.73687
G1 X87.531 Y10.585 E3.78029
G1 X88.293 Y10.374 E3.82369
G1 X89.073 Y10.24 E3.86712
G1 X89.764 Y10.189 E3.90514
G1 X90.33 Y10.175 E3.93621
G1 X129.293 Y10.175 E6.07447
G1 X130.108 Y10.186 E6.1192
G1 X130.897 Y10.237 E6.16259
G1 X131.678 Y10.368 E6.20605
G1 X132.44 Y10.576 E6.2494
G1 X133.178 Y10.861 E6.29282
G1 X133.884 Y11.219 E6.33626
G1 X134.647 Y11.717 E6.38626
G1 X135.126 Y12.071 E6.41895
G1 X137.35 Y13.667 E6.56918
G1 X139.488 Y15.11 E6.71073
G1 X141.69 Y16.508 E6.85387
G1 X143.924 Y17.838 E6.99655
G1 X146.232 Y19.127 E7.14163
G1 X148.502 Y20.31 E7.28211
G1 X150.885 Y21.469 E7.42753
G1 X153.248 Y22.536 E7.56982
G1 X155.632 Y23.532 E7.71161
G1 X158.102 Y24.484 E7.85688
G1 X160.53 Y25.34 E7.99817
G1 X163.041 Y26.147 E8.14291
G1 X165.531 Y26.871 E8.28522
G1 X168.03 Y27.52 E8.42691
G1 X170.584 Y28.108 E8.57074
G1 X173.2 Y28.632 E8.71716
G1 X175.702 Y29.061 E8.85647
G1 X178.293 Y29.429 E9.00009
G1 X180.874 Y29.722 E9.14264
G1 X183.478 Y29.944 E9.28606
G1 X186.076 Y30.09 E9.42886
G1 X190.059 Y30.175 E9.6475
G1 X191.405 Y30.176 E9.72137
G1 X192.103 Y30.186 E9.75968
G1 X192.892 Y30.237 E9.80307
G1 X193.672 Y30.368 E9.84647
G1 X194.435 Y30.577 E9.88989
G1 X195.173 Y30.861 E9.93328
G1 X195.879 Y31.219 E9.97672
G1 X196.544 Y31.646 E10.02009
G1 X197.164 Y32.138 E10.06353
G1 X197.73 Y32.691 E10.10696
G1 X198.238 Y33.297 E10.15035
G1 X198.681 Y33.952 E10.19375
G1 X199.057 Y34.648 E10.23716
G1 X199.36 Y35.378 E10.28054
G1 X199.588 Y36.136 E10.32398
G1 X199.739 Y36.912 E10.36736
G1 X199.813 Y37.79 E10.41572
G1 X199.825 Y38.33 E10.44536
G1 X199.824 Y201.361 E19.39237
G1 X199.815 Y202.088 E19.43227
G1 X199.766 Y202.877 E19.47566
G1 X199.636 Y203.658 E19.51911
G1 X199.429 Y204.421 E19.56249
G1 X199.146 Y205.159 E19.60587
G1 X198.789 Y205.865 E19.64929
G1 X198.364 Y206.532 E19.69269
G1 X197.873 Y207.152 E19.73609
G1 X197.322 Y207.719 E19.77948
G1 X196.716 Y208.228 E19.82291
G1 X196.062 Y208.673 E19.86633
G1 X195.367 Y209.05 E19.90972
G1 X194.637 Y209.355 E19.95313
G1 X193.88 Y209.585 E19.99655
G1 X193.104 Y209.736 E20.03994
G1 X192.21 Y209.813 E20.08918
G1 X191.67 Y209.825 E20.11882
G1 X28.606 Y209.824 E29.06765
G1 X27.908 Y209.815 E29.10596
G1 X27.119 Y209.765 E29.14935
G1 X26.338 Y209.636 E29.19279
G1 X25.575 Y209.428 E29.23619
G1 X24.837 Y209.144 E29.27958
G1 X24.131 Y208.787 E29.323
G1 X23.465 Y208.361 E29.36639
G1 X22.845 Y207.87 E29.40979
G1 X22.278 Y207.319 E29.45318
G1 X21.769 Y206.713 E29.49661
G1 X21.324 Y206.059 E29.54002
G1 X20.948 Y205.363 E29.58343
G1 X20.644 Y204.633 E29.62683
G1 X20.414 Y203.876 E29.67025
G1 X20.263 Y203.1 E29.71364
G1 X20.187 Y202.202 E29.76309
G1 X20.175 Y201.658 E29.79295
G1 X20.176 Y38.568 E38.74321
G1 X20.185 Y37.903 E38.77971
G1 X20.235 Y37.114 E38.82309
G1 X20.365 Y36.334 E38.86649
G1 X20.574 Y35.571 E38.9099
G1 X20.858 Y34.832 E38.95335
G1 X21.215 Y34.127 E38.99672
G1 X21.642 Y33.461 E39.04014
G1 X22.133 Y32.841 E39.08354
G1 X22.685 Y32.274 E39.12696
G1 X23.291 Y31.766 E39.17036
G0 F6000 X23.821 Y32.06
G1 F600 X24.467 Y31.654 E39.21223
G1 X25.152 Y31.319 E39.25408
G1 X25.868 Y31.056 E39.29594
G1 X26.607 Y30.87 E39.33776
G1 X27.362 Y30.763 E39.37961
G1 X27.805 Y30.737 E39.40396
G1 X28.33 Y30.725 E39.43278
G1 X29.98 Y30.725 E39.52333
G1 X32.64 Y30.687 E39.66933
G1 X35.23 Y30.577 E39.81159
G1 X37.864 Y30.391 E39.9565
G1 X40.499 Y30.13 E40.10182
G1 X43.073 Y29.8 E40.24423
G1 X45.69 Y29.389 E40.38961
G1 X48.248 Y28.913 E40.5324
G1 X50.808 Y28.362 E40.67611
G1 X53.348 Y27.74 E40.81962
G1 X55.887 Y27.042 E40.96413
G1 X58.406 Y26.27 E41.10872
G1 X60.879 Y25.436 E41.25194
G1 X63.334 Y24.53 E41.39555
G1 X65.767 Y23.553 E41.53944
G1 X68.194 Y22.497 E41.68469
G1 X70.545 Y21.395 E41.82718
G1 X72.922 Y20.198 E41.97324
G1 X75.212 Y18.961 E42.11607
G1 X77.442 Y17.675 E42.25735
G1 X79.742 Y16.26 E42.40554
G1 X81.886 Y14.857 E42.54616
G1 X84.06 Y13.343 E42.69155
G1 X84.964 Y12.674 E42.75326
G1 X85.748 Y12.109 E42.8063
G1 X86.389 Y11.696 E42.84815
G1 X87.07 Y11.352 E42.89002
G1 X87.783 Y11.082 E42.93186
G1 X88.52 Y10.887 E42.97369
G1 X89.274 Y10.772 E43.01555
G1 X89.78 Y10.738 E43.04338
G1 X90.33 Y10.725 E43.07357
G1 X129.293 Y10.725 E45.21183
G1 X130.1 Y10.736 E45.25613
G1 X130.861 Y10.787 E45.29798
G1 X131.613 Y10.917 E45.33986
G1 X132.346 Y11.125 E45.38168
G1 X133.054 Y11.409 E45.42354
G1 X133.729 Y11.765 E45.46542
G1 X134.321 Y12.159 E45.50445
G1 X134.867 Y12.563 E45.54172
G1 X137.019 Y14.107 E45.68708
G1 X139.19 Y15.572 E45.83081
G1 X141.412 Y16.983 E45.97526
G1 X143.651 Y18.316 E46.11826
G1 X145.968 Y19.609 E46.26387
G1 X148.267 Y20.808 E46.40617
G1 X150.622 Y21.954 E46.5499
G1 X153.026 Y23.039 E46.69464
G1 X155.439 Y24.047 E46.83816
G1 X157.926 Y25.005 E46.98442
G1 X160.363 Y25.865 E47.12624
G1 X162.86 Y26.667 E47.27017
G1 X165.372 Y27.397 E47.41373
G1 X167.91 Y28.057 E47.55765
G1 X170.495 Y28.652 E47.70322
G1 X173.072 Y29.168 E47.84745
G1 X175.599 Y29.601 E47.98815
G1 X178.227 Y29.975 E48.13383
G1 X180.837 Y30.271 E48.27798
G1 X183.469 Y30.495 E48.42294
G1 X186.033 Y30.64 E48.56388
G1 X190.048 Y30.725 E48.78427
G1 X191.397 Y30.726 E48.8583
G1 X192.095 Y30.736 E48.89661
G1 X192.856 Y30.787 E48.93847
G1 X193.608 Y30.917 E48.98035
G1 X194.341 Y31.125 E49.02216
G1 X195.049 Y31.409 E49.06403
G1 X195.723 Y31.765 E49.10586
G1 X196.356 Y32.19 E49.1477
G1 X196.942 Y32.679 E49.18958
G1 X197.473 Y33.227 E49.23146
G1 X197.943 Y33.827 E49.27329
G1 X198.348 Y34.473 E49.31513
G1 X198.684 Y35.158 E49.357
G1 X198.945 Y35.874 E49.39883
G1 X199.131 Y36.614 E49.4407
G1 X199.238 Y37.369 E49.48255
G1 X199.263 Y37.805 E49.50651
G1 X199.275 Y38.33 E49.53533
G1 X199.274 Y201.354 E58.48196
G1 X199.265 Y202.081 E58.52186
G1 X199.216 Y202.842 E58.56371
G1 X199.087 Y203.594 E58.60558
G1 X198.88 Y204.328 E58.64744
G1 X198.598 Y205.036 E58.68926
G1 X198.243 Y205.711 E58.73111
G1 X197.819 Y206.345 E58.77297
G1 X197.331 Y206.931 E58.81482
G1 X196.785 Y207.463 E58.85666
G1 X196.186 Y207.935 E58.89851
G1 X195.54 Y208.341 E58.94038
G1 X194.856 Y208.678 E58.98223
G1 X194.14 Y208.941 E59.02409
G1 X193.401 Y209.128 E59.06592
G1 X192.646 Y209.236 E59.10778
G1 X192.195 Y209.263 E59.13257
G1 X191.67 Y209.275 E59.16139
G1 X28.613 Y209.274 E68.10983
G1 X27.915 Y209.265 E68.14814
G1 X27.154 Y209.216 E68.18999
G1 X26.403 Y209.086 E68.23182
G1 X25.669 Y208.879 E68.27367
G1 X24.96 Y208.596 E68.31557
G1 X24.286 Y208.241 E68.35737
G1 X23.652 Y207.817 E68.39923
G1 X23.066 Y207.329 E68.44108
G1 X22.534 Y206.782 E68.48295
G1 X22.063 Y206.183 E68.52477
G1 X21.657 Y205.537 E68.56664
G1 X21.32 Y204.853 E68.60849
G1 X21.058 Y204.137 E68.65033
G1 X20.871 Y203.397 E68.69222
G1 X20.763 Y202.642 E68.73407
G1 X20.737 Y202.188 E68.75903
G1 X20.725 Y201.658 E68.78812
G1 X20.726 Y38.576 E77.73794
G1 X20.735 Y37.911 E77.77444
G1 X20.785 Y37.15 E77.81629
G1 X20.915 Y36.398 E77.85817
G1 X21.122 Y35.664 E77.90002
G1 X21.406 Y34.956 E77.94189
G1 X21.761 Y34.282 E77.98369
G1 X22.186 Y33.648 E78.02558
G1 X22.674 Y33.063 E78.06739
G1 X23.222 Y32.531 E78.1093
G1 X23.821 Y32.06 E78.15112
G1 F2700 E73.15112
;MESH:Floor.STL
G0 F6000 X29.1 Y37.335
G0 X28.825 Y201.175
;TYPE:WALL-INNER
G1 F2700 E78.15112
G1 F600 X191.175 Y201.175 E87.06076
G1 X191.175 Y50.858 E95.31004
G1 X191.175 Y38.825 E95.9704
G1 X129.945 Y38.824 E99.33066
G1 X129.683 Y38.763 E99.34542
G1 X129.506 Y38.662 E99.35661
G1 X129.293 Y38.427 E99.37401
G1 X129.176 Y38.052 E99.39557
G1 X129.175 Y18.825 E100.45073
G1 X90.825 Y18.825 E102.55535
G1 X90.824 Y38.052 E103.61051
G1 X90.775 Y38.286 E103.62363
G1 X90.568 Y38.6 E103.64427
G1 X90.41 Y38.717 E103.65506
G1 X90.055 Y38.824 E103.67541
G1 X28.825 Y38.825 E107.03567
G1 X28.825 Y201.175 E115.94531
G0 F6000 X28.3 Y201.7
;TYPE:WALL-OUTER
G1 F600 X191.7 Y201.7 E124.91257
G1 X191.7 Y50.858 E133.19066
G1 X191.7 Y38.3 E133.87984
G1 X129.94 Y38.295 E137.26918
G1 X129.82 Y38.241 E137.2764
G1 X129.735 Y38.143 E137.28352
G1 X129.7 Y38.019 E137.29059
G1 X129.7 Y18.3 E138.37275
G1 X90.3 Y18.3 E140.53499
G1 X90.299 Y38.029 E141.61771
G1 X90.194 Y38.23 E141.63015
G1 X90.02 Y38.3 E141.64044
G1 X28.3 Y38.3 E145.02759
G1 X28.3 Y201.7 E153.99486
G1 F2700 E148.99486
G0 F6000 X28.645 Y201.355
G0 X172.989 Y200.9
G0 X172.9 Y193.081
G0 X172.989 Y192.825
;TYPE:WALL-INNER
G1 F2700 E153.99486
G1 F600 X46.993 Y192.825 E160.90942
G1 X46.727 Y192.737 E160.92479
G1 X46.458 Y192.519 E160.9438
G1 X46.352 Y192.35 E160.95474
G1 X46.275 Y192.039 E160.97233
G1 X46.277 Y62.03 E168.10712
G1 X46.344 Y61.767 E168.12201
G1 X46.442 Y61.601 E168.13259
G1 X46.609 Y61.436 E168.14548
G1 X46.791 Y61.334 E168.15693
G1 X47.046 Y61.276 E168.17128
G1 X172.954 Y61.276 E175.08101
G1 X173.209 Y61.334 E175.09536
G1 X173.346 Y61.405 E175.10383
G1 X173.519 Y61.553 E175.11632
G1 X173.627 Y61.708 E175.12669
G1 X173.723 Y62.03 E175.14513
G1 X173.725 Y192.039 E182.27992
G1 X173.648 Y192.35 E182.29751
G1 X173.542 Y192.52 E182.3085
G1 X173.377 Y192.674 E182.32089
G1 X172.989 Y192.825 E182.34374
G1 F2700 E177.34374
G0 F6000 X46.497 Y192.603
G0 X46.425 Y192.159
G1 F2700 E182.34374
G0 F6000 X46.844 Y192.159
;TYPE:WALL-OUTER
G1 F600 X46.802 Y192.04 E182.35066
G1 X46.804 Y62.048 E189.48452
G1 X46.921 Y61.858 E189.49677
G1 X47.08 Y61.8 E189.50606
G1 X172.957 Y61.8 E196.41409
G1 X173.063 Y61.847 E196.42045
G1 X173.14 Y61.918 E196.4262
G1 X173.199 Y62.074 E196.43535
G1 X173.198 Y192.04 E203.56779
G1 X173.156 Y192.159 E203.57471
G1 X172.948 Y192.297 E203.58841
G1 X47.048 Y192.296 E210.4977
G1 X46.844 Y192.159 E210.51119
G0 F6000 X46.425 Y192.159
G0 X46.949 Y192.989
G0 X46.925 Y193.316
;TYPE:SKIN
G1 F600 X46.5 Y193.178 E210.53571
G1 X46.186 Y192.96 E210.55669
G1 X45.975 Y192.693 E210.57537
G1 X45.847 Y192.423 E210.59176
G1 X45.781 Y192.117 E210.60894
G1 X45.783 Y61.987 E217.75038
G1 X45.911 Y61.474 E217.77939
G1 X46.243 Y61.09 E217.80725
G1 X46.603 Y60.875 E217.83026
G1 X46.936 Y60.782 E217.84924
G1 X112.767 Y60.782 E221.46199
G1 X172.989 Y60.782 E224.76693
G1 X173.266 Y60.831 E224.78236
G1 X173.673 Y61.024 E224.80708
G1 X173.901 Y61.237 E224.82421
G1 X174.109 Y61.566 E224.84557
G1 X174.217 Y61.989 E224.86953
G1 X174.219 Y192.085 E232.00909
G1 X174.102 Y192.55 E232.03541
G1 X173.926 Y192.834 E232.05374
G1 X173.589 Y193.153 E232.07921
G1 X173.079 Y193.317 E232.10861
G1 X46.925 Y193.316 E239.03184
G1 F2700 E234.03184
G0 F6000 X46.949 Y192.989
G0 X46.121 Y192.458
G0 X46.121 Y200.9
G0 X29.321 Y200.679
G1 F2700 E239.03184
G1 F600 X190.68 Y200.68 E247.8871
G1 X190.68 Y50.862 E256.109
G1 X190.68 Y39.321 E256.74236
G1 X129.911 Y39.318 E260.07731
G1 X129.498 Y39.225 E260.10054
G1 X129.224 Y39.069 E260.11785
G1 X128.98 Y38.845 E260.13603
G1 X128.759 Y38.461 E260.16034
G1 X128.68 Y38.126 E260.17923
G1 X128.68 Y19.32 E261.21129
G1 X91.32 Y19.32 E263.26158
G1 X91.318 Y38.064 E264.29023
G1 X91.288 Y38.299 E264.30323
G1 X91.162 Y38.636 E264.32298
G1 X90.852 Y39.011 E264.34968
G1 X90.597 Y39.179 E264.36644
G1 X90.2 Y39.318 E264.38952
G1 X29.321 Y39.321 E267.73051
G1 X29.321 Y200.679 E276.58571
G0 F6000 X30.061 Y200.403
G1 F600 X29.595 Y199.937 E276.62188
G0 F6000 X29.595 Y199.16
G1 F600 X30.839 Y200.403 E276.71839
G0 F6000 X31.616 Y200.403
G1 F600 X29.595 Y198.382 E276.87524
G0 F6000 X29.595 Y197.604
G1 F600 X32.394 Y200.403 E277.09248
G0 F6000 X33.172 Y200.403
G1 F600 X29.595 Y196.826 E277.37009
G0 F6000 X29.595 Y196.048
G1 F600 X33.95 Y200.403 E277.70809
G0 F6000 X34.728 Y200.403
G1 F600 X29.595 Y195.271 E278.10642
G0 F6000 X29.595 Y194.493
G1 F600 X35.505 Y200.403 E278.5651
G0 F6000 X36.283 Y200.403
G1 F600 X29.595 Y193.715 E279.08417
G0 F6000 X29.595 Y192.937
G1 F600 X37.061 Y200.403 E279.66361
G0 F6000 X37.839 Y200.403
G1 F600 X29.595 Y192.159 E280.30343
G0 F6000 X29.595 Y191.381
G1 F600 X38.617 Y200.403 E281.00364
G0 F6000 X39.395 Y200.403
G1 F600 X29.595 Y190.604 E281.76419
G0 F6000 X29.595 Y189.826
G1 F600 X40.172 Y200.403 E282.58508
G0 F6000 X40.95 Y200.403
G1 F600 X29.595 Y189.048 E283.46635
G0 F6000 X29.595 Y188.27
G1 F600 X41.728 Y200.403 E284.40801
G0 F6000 X42.506 Y200.403
G1 F600 X29.595 Y187.492 E285.41004
G0 F6000 X29.595 Y186.715
G1 F600 X43.284 Y200.403 E286.47242
G0 F6000 X44.061 Y200.403
G1 F600 X29.595 Y185.937 E287.59514
G0 F6000 X29.595 Y185.159
G1 F600 X44.839 Y200.403 E288.77824
G0 F6000 X45.617 Y200.403
G1 F600 X29.595 Y184.381 E290.02172
G0 F6000 X29.595 Y183.603
G1 F600 X46.395 Y200.403 E291.32558
G0 F6000 X47.173 Y200.403
G1 F600 X29.595 Y182.825 E292.68983
G0 F6000 X29.595 Y182.048
G1 F600 X47.951 Y200.403 E294.11442
G0 F6000 X48.728 Y200.403
G1 F600 X29.595 Y181.27 E295.59935
G0 F6000 X29.595 Y180.492
G1 F600 X49.506 Y200.403 E297.14466
G0 F6000 X50.284 Y200.403
G1 F600 X29.595 Y179.714 E298.75035
G0 F6000 X29.595 Y178.936
G1 F600 X51.062 Y200.403 E300.41643
G0 F6000 X51.84 Y200.403
G1 F600 X29.595 Y178.159 E302.14284
G0 F6000 X29.595 Y177.381
G1 F600 X52.617 Y200.403 E303.9296
G0 F6000 X53.395 Y200.403
G1 F600 X46.444 Y193.452 E304.46908
G0 F6000 X47.364 Y193.594
G1 F600 X54.173 Y200.403 E304.99753
G0 F6000 X54.951 Y200.403
G1 F600 X48.142 Y193.594 E305.52598
G0 F6000 X48.92 Y193.594
G1 F600 X55.729 Y200.403 E306.05443
G0 F6000 X56.507 Y200.403
G1 F600 X49.698 Y193.594 E306.58289
G0 F6000 X50.476 Y193.594
G1 F600 X57.284 Y200.403 E307.1113
G0 F6000 X58.062 Y200.403
G1 F600 X51.253 Y193.594 E307.63975
G0 F6000 X52.031 Y193.594
G1 F600 X58.84 Y200.403 E308.16821
G0 F6000 X59.618 Y200.403
G1 F600 X52.809 Y193.594 E308.69666
G0 F6000 X53.587 Y193.594
G1 F600 X60.396 Y200.403 E309.22511
G0 F6000 X61.173 Y200.403
G1 F600 X54.365 Y193.594 E309.75353
G0 F6000 X55.143 Y193.594
G1 F600 X61.951 Y200.403 E310.28194
G0 F6000 X62.729 Y200.403
G1 F600 X55.92 Y193.594 E310.81039
G0 F6000 X56.698 Y193.594
G1 F600 X63.507 Y200.403 E311.33885
G0 F6000 X64.285 Y200.403
G1 F600 X57.476 Y193.594 E311.8673
G0 F6000 X58.254 Y193.594
G1 F600 X65.063 Y200.403 E312.39575
G0 F6000 X65.84 Y200.403
G1 F600 X59.032 Y193.594 E312.92417
G0 F6000 X59.809 Y193.594
G1 F600 X66.618 Y200.403 E313.45262
G0 F6000 X67.396 Y200.403
G1 F600 X60.587 Y193.594 E313.98107
G0 F6000 X61.365 Y193.594
G1 F600 X68.174 Y200.403 E314.50953
G0 F6000 X68.952 Y200.403
G1 F600 X62.143 Y193.594 E315.03798
G0 F6000 X62.921 Y193.594
G1 F600 X69.729 Y200.403 E315.56639
G0 F6000 X70.507 Y200.403
G1 F600 X63.699 Y193.594 E316.09481
G0 F6000 X64.476 Y193.594
