;FLAVOR:Marlin
;TIME:4833
;Filament used: 5.40054m
;Layer height: 0.24
;MINX:72.835
;MINY:70.436
;MINZ:0.288
;MAXX:147.165
;MAXY:144.964
;MAXZ:17.838
;Generated with Cura_SteamEngine 5.2.1
M140 S60
M105
M190 S60
M104 S210
M105
M109 S210
M82 ;absolute extrusion mode
; Ender 3 Custom Start G-code
G92 E0 ; Reset Extruder
G28 ; Home all axes
G1 Z2.0 F3000 ; Move Z Axis up little to prevent scratching of Heat Bed
G1 X0.1 Y20 Z0.3 F5000.0 ; Move to start position
G1 X0.1 Y200.0 Z0.3 F1500.0 E15 ; Draw the first line
G1 X0.4 Y200.0 Z0.3 F5000.0 ; Move to side a little
G1 X0.4 Y20 Z0.3 F1500.0 E30 ; Draw the second line
G92 E0 ; Reset Extruder
G1 Z2.0 F3000 ; Move Z Axis up little to prevent scratching of Heat Bed
G1 X5 Y20 Z0.3 F5000.0 ; Move over to prevent blob squish
G92 E0
G92 E0
G1 F2700 E-5
;LAYER_COUNT:69
;LAYER:-6
M107
G0 F12000 X75.217 Y97.578 Z0.288
;TYPE:SUPPORT-INTERFACE
G1 F2700 E0
G1 F1125 X75.048 Y97.779 E0.03773
G1 X74.875 Y98.015 E0.07978
G1 X74.726 Y98.248 E0.11952
G1 X74.597 Y98.479 E0.15753
G1 X74.47 Y98.746 E0.20001
G1 X74.368 Y99.003 E0.23974
G1 X74.289 Y99.25 E0.277
G1 X74.216 Y99.531 E0.31872
G1 X74.163 Y99.797 E0.35769
G1 X74.128 Y100.079 E0.39852
G1 X74.1 Y100.572 E0.46947
G1 X74.1 Y117.395 E2.88666
G1 X74.159 Y118.039 E2.97958
G1 X74.234 Y118.482 E3.04414
G1 X74.356 Y118.88 E3.10395
G1 X74.454 Y119.128 E3.14227
G1 X74.578 Y119.397 E3.18483
G1 X74.698 Y119.62 E3.22121
G1 X74.855 Y119.872 E3.26387
G1 X75.013 Y120.093 E3.30291
G1 X75.188 Y120.307 E3.34263
G1 X75.377 Y120.511 E3.38259
G1 X75.584 Y120.706 E3.42345
G1 X75.785 Y120.875 E3.46118
G1 X76.02 Y121.048 E3.50311
G1 X76.255 Y121.197 E3.54309
G1 X76.486 Y121.326 E3.5811
G1 X76.751 Y121.451 E3.6232
G1 X76.999 Y121.551 E3.66163
G1 X77.271 Y121.64 E3.70275
G1 X77.535 Y121.707 E3.74188
G1 X77.807 Y121.76 E3.7817
G1 X78.088 Y121.795 E3.82239
G1 X78.582 Y121.823 E3.89348
G1 X92.631 Y121.825 E5.91209
G1 X93.548 Y121.907 E6.04438
G1 X94.266 Y122.081 E6.15053
G1 X94.905 Y122.331 E6.24912
G1 X95.541 Y122.672 E6.35281
G1 X96.092 Y123.063 E6.44989
G1 X96.619 Y123.546 E6.5526
G1 X97.081 Y124.093 E6.65548
G1 X97.467 Y124.693 E6.75799
G1 X97.776 Y125.341 E6.86114
G1 X98.008 Y126.056 E6.96914
G1 X98.131 Y126.705 E7.06405
G1 X98.178 Y127.424 E7.16758
G1 X98.177 Y139.274 E8.87024
G1 X98.236 Y139.918 E8.96316
G1 X98.312 Y140.368 E9.02873
G1 X98.433 Y140.761 E9.08781
G1 X98.53 Y141.004 E9.12541
G1 X98.655 Y141.274 E9.16816
G1 X98.774 Y141.496 E9.20435
G1 X98.931 Y141.746 E9.24677
G1 X99.092 Y141.97 E9.2864
G1 X99.265 Y142.182 E9.32572
G1 X99.456 Y142.388 E9.36608
G1 X99.661 Y142.581 E9.40654
G1 X99.864 Y142.753 E9.44477
G1 X100.1 Y142.925 E9.48673
G1 X100.333 Y143.074 E9.52646
G1 X100.564 Y143.203 E9.56448
G1 X100.831 Y143.33 E9.60696
G1 X101.088 Y143.432 E9.64669
G1 X101.335 Y143.511 E9.68395
G1 X101.616 Y143.584 E9.72567
G1 X101.882 Y143.637 E9.76464
G1 X102.164 Y143.671 E9.80545
G1 X102.657 Y143.7 E9.87641
G1 X119.48 Y143.7 E12.2936
G1 X120.124 Y143.641 E12.38652
G1 X120.567 Y143.566 E12.45108
G1 X120.965 Y143.444 E12.51089
G1 X121.213 Y143.346 E12.54921
G1 X121.481 Y143.223 E12.59158
G1 X121.707 Y143.1 E12.62855
G1 X121.957 Y142.945 E12.67081
G1 X122.18 Y142.785 E12.71025
G1 X122.392 Y142.612 E12.74956
G1 X122.598 Y142.421 E12.78993
G1 X122.796 Y142.211 E12.8314
G1 X122.962 Y142.013 E12.86852
G1 X123.133 Y141.78 E12.91005
G1 X123.283 Y141.543 E12.95035
G1 X123.41 Y141.315 E12.98785
G1 X123.536 Y141.049 E13.03014
G1 X123.636 Y140.801 E13.06856
G1 X123.725 Y140.529 E13.10968
G1 X123.792 Y140.265 E13.14882
G1 X123.845 Y139.993 E13.18863
G1 X123.88 Y139.712 E13.22932
G1 X123.908 Y139.218 E13.30041
G1 X123.91 Y127.369 E15.00292
G1 X123.992 Y126.452 E15.13521
G1 X124.166 Y125.734 E15.24136
G1 X124.416 Y125.095 E15.33995
G1 X124.757 Y124.459 E15.44364
G1 X125.148 Y123.908 E15.54072
G1 X125.631 Y123.381 E15.64343
G1 X126.178 Y122.919 E15.74631
G1 X126.778 Y122.533 E15.84882
G1 X127.426 Y122.224 E15.95197
G1 X128.082 Y122.006 E16.05129
G1 X128.79 Y121.869 E16.15491
G1 X129.489 Y121.823 E16.25556
G1 X141.47 Y121.823 E17.97704
G1 X142.118 Y121.764 E18.07053
G1 X142.568 Y121.688 E18.1361
G1 X142.961 Y121.567 E18.19518
G1 X143.204 Y121.47 E18.23278
G1 X143.474 Y121.345 E18.27553
G1 X143.696 Y121.226 E18.31172
G1 X143.946 Y121.069 E18.35414
G1 X144.17 Y120.908 E18.39377
G1 X144.384 Y120.733 E18.43349
G1 X144.588 Y120.544 E18.47345
G1 X144.788 Y120.333 E18.51522
G1 X144.952 Y120.136 E18.55205
G1 X145.125 Y119.9 E18.5941
G1 X145.274 Y119.667 E18.63384
G1 X145.403 Y119.436 E18.67185
G1 X145.53 Y119.169 E18.71434
G1 X145.632 Y118.912 E18.75406
G1 X145.711 Y118.665 E18.79133
G1 X145.784 Y118.384 E18.83304
G1 X145.837 Y118.118 E18.87201
G1 X145.871 Y117.836 E18.91282
G1 X145.9 Y117.343 E18.98378
G1 X145.9 Y100.728 E21.37109
G1 X145.9 Y100.52 E21.40097
G1 X145.841 Y99.873 E21.49432
G1 X145.765 Y99.43 E21.55891
G1 X145.643 Y99.035 E21.61831
G1 X145.546 Y98.785 E21.65684
G1 X145.423 Y98.52 E21.69881
G1 X145.3 Y98.293 E21.73591
G1 X145.145 Y98.043 E21.77818
G1 X144.985 Y97.82 E21.81761
G1 X144.812 Y97.608 E21.85693
G1 X144.621 Y97.402 E21.89729
G1 X144.416 Y97.209 E21.93775
G1 X144.213 Y97.038 E21.97588
G1 X143.98 Y96.867 E22.01741
G1 X143.745 Y96.718 E22.05739
G1 X143.514 Y96.59 E22.09534
G1 X143.249 Y96.464 E22.1375
G1 X143.001 Y96.364 E22.17592
G1 X142.729 Y96.275 E22.21704
G1 X142.465 Y96.208 E22.25618
G1 X142.193 Y96.155 E22.29599
G1 X141.912 Y96.12 E22.33668
G1 X141.418 Y96.092 E22.40777
G1 X129.454 Y96.09 E24.12681
G1 X128.537 Y96.008 E24.25909
G1 X127.819 Y95.834 E24.36524
G1 X127.18 Y95.584 E24.46383
G1 X126.544 Y95.243 E24.56752
G1 X125.993 Y94.852 E24.6646
G1 X125.464 Y94.367 E24.76772
G1 X124.992 Y93.806 E24.87306
G1 X124.618 Y93.222 E24.9727
G1 X124.321 Y92.6 E25.07174
G1 X124.09 Y91.915 E25.17561
G1 X123.954 Y91.21 E25.27877
G1 X123.908 Y90.511 E25.37943
G1 X123.908 Y76.126 E27.44632
G1 X123.849 Y75.482 E27.53924
G1 X123.773 Y75.032 E27.60481
G1 X123.652 Y74.639 E27.66389
G1 X123.555 Y74.396 E27.70149
G1 X123.43 Y74.126 E27.74424
G1 X123.311 Y73.904 E27.78043
G1 X123.154 Y73.654 E27.82285
G1 X122.993 Y73.431 E27.86237
G1 X122.818 Y73.216 E27.9022
G1 X122.629 Y73.012 E27.94216
G1 X122.422 Y72.817 E27.98302
G1 X122.221 Y72.648 E28.02075
G1 X121.985 Y72.475 E28.06279
G1 X121.752 Y72.326 E28.10253
G1 X121.521 Y72.197 E28.14055
G1 X121.254 Y72.07 E28.18303
G1 X120.997 Y71.968 E28.22276
G1 X120.75 Y71.889 E28.26002
G1 X120.469 Y71.816 E28.30173
G1 X120.203 Y71.763 E28.34071
G1 X119.921 Y71.728 E28.38154
G1 X119.428 Y71.7 E28.45249
G1 X102.605 Y71.7 E30.86968
G1 X101.961 Y71.759 E30.9626
G1 X101.518 Y71.834 E31.02716
G1 X101.12 Y71.956 E31.08697
G1 X100.872 Y72.054 E31.12528
G1 X100.604 Y72.177 E31.16765
G1 X100.378 Y72.3 E31.20462
G1 X100.128 Y72.455 E31.24689
G1 X99.905 Y72.615 E31.28632
G1 X99.693 Y72.788 E31.32564
G1 X99.487 Y72.979 E31.366
G1 X99.294 Y73.184 E31.40646
G1 X99.123 Y73.387 E31.4446
G1 X98.952 Y73.62 E31.48612
G1 X98.801 Y73.856 E31.52638
G1 X98.675 Y74.085 E31.56393
G1 X98.549 Y74.351 E31.60622
G1 X98.449 Y74.599 E31.64465
G1 X98.36 Y74.871 E31.68577
G1 X98.293 Y75.135 E31.7249
G1 X98.24 Y75.407 E31.76472
G1 X98.205 Y75.688 E31.80541
G1 X98.177 Y76.182 E31.8765
G1 X98.175 Y90.546 E33.94037
G1 X98.093 Y91.463 E34.07266
G1 X97.919 Y92.181 E34.17881
G1 X97.669 Y92.82 E34.2774
G1 X97.328 Y93.456 E34.38109
G1 X96.937 Y94.007 E34.47817
G1 X96.454 Y94.534 E34.58088
G1 X95.907 Y94.996 E34.68376
G1 X95.307 Y95.382 E34.78627
G1 X94.659 Y95.691 E34.88942
G1 X93.944 Y95.923 E34.99742
G1 X93.295 Y96.046 E35.09233
G1 X92.596 Y96.092 E35.19299
G1 X78.53 Y96.092 E37.21404
G1 X77.882 Y96.151 E37.30754
G1 X77.432 Y96.227 E37.37311
G1 X77.039 Y96.348 E37.43219
G1 X76.796 Y96.445 E37.46979
G1 X76.526 Y96.57 E37.51254
G1 X76.304 Y96.689 E37.54873
G1 X76.054 Y96.846 E37.59115
G1 X75.83 Y97.007 E37.63078
G1 X75.616 Y97.182 E37.6705
G1 X75.412 Y97.371 E37.71046
G1 X75.217 Y97.578 E37.75132
G0 F12000 X75.086 Y98.845
G1 F1125 X119.34 Y143.099 E46.74371
G0 F12000 X121.881 Y142.246
G1 F1125 X76.758 Y97.123 E55.91269
G0 F12000 X79.72 Y96.691
G1 F1125 X123.192 Y140.163 E64.74618
G0 F12000 X123.308 Y136.884
G1 F1125 X83.114 Y96.691 E72.91348
G0 F12000 X86.508 Y96.691
G1 F1125 X123.308 Y133.49 E80.39112
G0 F12000 X123.308 Y130.096
G1 F1125 X89.902 Y96.691 E87.1791
G0 F12000 X93.253 Y96.647
G1 F1125 X123.363 Y126.758 E93.29754
G0 F12000 X124.21 Y124.21
G1 F1125 X95.786 Y95.786 E99.07329
G0 F12000 X97.558 Y94.164
G1 F1125 X125.827 Y122.433 E104.81754
G0 F12000 X128.168 Y121.379
G1 F1125 X98.621 Y91.833 E110.82137
G0 F12000 X98.774 Y88.591
G1 F1125 X131.405 Y121.222 E117.45198
G0 F12000 X134.799 Y121.222
G1 F1125 X98.775 Y85.198 E124.77204
G0 F12000 X98.775 Y81.804
G1 F1125 X138.193 Y121.222 E132.78176
G0 F12000 X141.574 Y121.21
G1 F1125 X98.775 Y78.411 E141.4785
G0 F12000 X98.91 Y75.151
G1 F1125 X144.016 Y120.257 E150.64402
G0 F12000 X145.236 Y118.084
G1 F1125 X100.26 Y73.107 E159.78322
G0 F12000 X102.847 Y72.3
G1 F1125 X124.147 Y93.6 E164.11137
G0 F12000 X126.384 Y95.837
G1 F1125 X145.299 Y114.752 E167.95489
G0 F12000 X145.299 Y111.358
G1 F1125 X130.631 Y96.69 E170.93542
G0 F12000 X134.026 Y96.691
G1 F1125 X145.299 Y107.964 E173.22609
G0 F12000 X145.299 Y104.57
G1 F1125 X137.421 Y96.691 E174.827
G0 F12000 X140.815 Y96.691
G1 F1125 X145.299 Y101.176 E175.73825
G1 F2700 E170.73825
G0 F12000 X147.165 Y101.176
G0 X147.096 Y99.711
G0 X146.837 Y98.616
G0 X146.396 Y97.658
G0 X145.766 Y96.777
G0 X144.995 Y96.043
G0 X144.093 Y95.464
G0 X143.529 Y95.238
G0 X125.173 Y89.366
G0 X123.307 Y89.366
G1 F2700 E175.73825
G1 F1125 X106.241 Y72.3 E179.20605
G0 F12000 X109.635 Y72.3
G1 F1125 X123.307 Y85.972 E181.98419
G0 F12000 X123.307 Y82.578
G1 F1125 X113.029 Y72.3 E184.07268
G0 F12000 X116.423 Y72.3
G1 F1125 X123.307 Y79.183 E185.4714
G0 F12000 X123.271 Y75.753
G1 F1125 X119.842 Y72.325 E186.16807
G1 F2700 E181.16807
G0 F12000 X119.455 Y70.436
G0 X102.422 Y70.447
G0 X101.055 Y70.652
G0 X100.038 Y71.046
G0 X99.136 Y71.61
G0 X98.349 Y72.343
G0 X74.051 Y96.997
G0 X73.472 Y97.899
G0 X73.073 Y98.896
G0 X72.889 Y99.856
G0 X72.835 Y101.853
G0 X74.7 Y101.853
G1 F2700 E186.16807
G1 F1125 X94.325 Y121.478 E190.15586
G0 F12000 X90.675 Y121.222
G1 F1125 X74.7 Y105.247 E193.40198
G0 F12000 X74.7 Y108.641
G1 F1125 X87.281 Y121.222 E195.95843
G0 F12000 X83.886 Y121.222
G1 F1125 X74.7 Y112.035 E197.82512
G0 F12000 X74.7 Y115.429
G1 F1125 X80.492 Y121.222 E199.00216
G0 F12000 X76.53 Y120.653
G1 F1125 X75.254 Y119.378 E199.26134
G1 F2700 E194.26134
G0 F12000 X74.01 Y120.864
G0 X74.743 Y121.651
G0 X75.608 Y122.285
G0 X76.568 Y122.74
G0 X77.409 Y122.958
G0 X96.603 Y125.818
G0 X98.516 Y125.669
G1 F2700 E199.26134
G1 F1125 X115.946 Y143.099 E202.80311
G0 F12000 X112.552 Y143.099
G1 F1125 X98.777 Y129.324 E205.60218
G0 F12000 X98.777 Y132.718
G1 F1125 X109.158 Y143.099 E207.71159
G0 F12000 X105.764 Y143.099
G1 F1125 X98.777 Y136.112 E209.13135
G0 F12000 X98.802 Y139.531
G1 F1125 X102.35 Y143.079 E209.8523
G1 F2700 E204.8523
G0 F300 X102.35 Y143.079 Z0.648
G0 F12000 X102.63 Y144.964
G0 X119.663 Y144.953
G0 X121.03 Y144.748
G0 X122.047 Y144.354
G0 X122.949 Y143.79
G0 X123.741 Y143.052
G0 X124.37 Y142.192
G0 X124.825 Y141.232
G0 X124.977 Y140.644
G0 X125.14 Y139.829
G0 X123.391 Y139.51
;TIME_ELAPSED:92.259533
;LAYER:-5
;TYPE:SUPPORT
G1 F2700 E209.8523
G1 F1125 X119.727 Y143.174 E210.7054
G1 X120.07 Y143.143 E210.7621
G1 X120.457 Y143.078 E210.82671
G1 X120.791 Y142.973 E210.88435
G1 X121.03 Y142.88 E210.92657
G1 X121.357 Y142.729 E210.98587
G1 X121.678 Y142.529 E211.04814
G1 X121.881 Y142.383 E211.08931
G1 X122.234 Y142.076 E211.16633
G1 X122.505 Y141.788 E211.23144
G1 X122.787 Y141.407 E211.30948
G1 X122.975 Y141.065 E211.37373
G1 X123.12 Y140.761 E211.42918
G1 X123.248 Y140.375 E211.49613
G1 X123.349 Y139.92 E211.57287
G1 X123.381 Y139.663 E211.61551
G1 X123.404 Y139.306 E211.6744
G1 X123.404 Y137.658 E211.94573
G1 X117.864 Y143.199 E213.23574
G1 X116.025 Y143.199 E213.5385
G1 X123.405 Y135.819 E215.25681
G1 X123.405 Y133.981 E215.55942
G1 X114.187 Y143.199 E217.70567
G1 X112.348 Y143.199 E218.00844
G1 X123.406 Y132.141 E220.5831
G1 X123.407 Y130.302 E220.88587
G1 X110.51 Y143.199 E223.88872
G1 X108.671 Y143.199 E224.19148
G1 X123.407 Y128.464 E227.62239
G1 X123.407 Y127.371 E227.80234
G1 X123.481 Y126.551 E227.93789
G1 X106.833 Y143.199 E231.81409
G1 X104.994 Y143.199 E232.11686
G1 X145.398 Y102.796 E241.52412
G1 X145.398 Y100.957 E241.82689
G1 X103.156 Y143.199 E251.66222
G1 X102.669 Y143.199 E251.74239
G1 X102.215 Y143.172 E251.81727
G1 X101.956 Y143.141 E251.86022
G1 X101.483 Y143.034 E251.94006
G1 X145.211 Y99.305 E262.12149
G1 X145.079 Y98.967 E262.18123
G1 X144.874 Y98.554 E262.25714
G1 X144.729 Y98.321 E262.30232
G1 X144.572 Y98.106 E262.34615
G1 X100.238 Y142.44 E272.66856
G1 X99.799 Y142.025 E272.76802
G1 X99.34 Y141.499 E272.88296
G1 X143.619 Y97.22 E283.19256
G1 X143.275 Y97.029 E283.25734
G1 X142.959 Y96.878 E283.315
G1 X142.577 Y96.752 E283.38123
G1 X142.309 Y96.692 E283.42644
G1 X98.792 Y140.21 E293.55874
G1 X98.732 Y139.862 E293.61688
G1 X98.677 Y139.244 E293.71903
G1 X98.677 Y138.486 E293.84383
G1 X140.571 Y96.592 E303.59813
G1 X138.732 Y96.592 E303.90089
G1 X98.677 Y136.647 E313.22701
G1 X98.677 Y134.809 E313.52962
G1 X136.894 Y96.592 E322.42779
G1 X135.055 Y96.592 E322.73056
G1 X98.677 Y132.97 E331.20055
G1 X98.677 Y131.132 E331.50315
G1 X133.217 Y96.592 E339.5452
G1 X131.379 Y96.592 E339.8478
G1 X98.677 Y129.293 E347.46179
G1 X98.677 Y127.455 E347.76439
G1 X129.533 Y96.599 E354.94868
G1 X128.434 Y96.5 E355.13035
G1 X127.921 Y96.372 E355.2174
G1 X98.464 Y125.829 E362.07595
G1 X98.245 Y125.162 E362.19154
G1 X97.939 Y124.516 E362.30922
G1 X126.608 Y95.846 E368.98442
G1 X126.273 Y95.665 E369.04711
G1 X125.502 Y95.114 E369.20313
G1 X97.182 Y123.434 E375.79695
G1 X97.004 Y123.222 E375.84253
G1 X96.439 Y122.697 E375.96951
G1 X96.23 Y122.548 E376.01177
G1 X124.621 Y94.157 E382.62212
G1 X124.17 Y93.449 E382.76033
G1 X123.951 Y92.988 E382.84435
G1 X95.078 Y121.862 E389.56705
G1 X94.414 Y121.602 E389.68445
G1 X93.68 Y121.421 E389.80892
G1 X123.514 Y91.587 E396.75525
G1 X123.453 Y91.261 E396.80986
G1 X123.407 Y90.525 E396.93127
G1 X123.407 Y89.856 E397.04141
G1 X91.94 Y121.322 E404.36784
G1 X90.102 Y121.322 E404.67045
G1 X123.407 Y88.017 E412.42494
G1 X123.407 Y86.179 E412.72755
G1 X88.263 Y121.322 E420.91011
G1 X86.425 Y121.322 E421.21271
G1 X123.407 Y84.34 E429.82334
G1 X123.407 Y82.502 E430.12594
G1 X84.586 Y121.322 E439.16463
G1 X82.748 Y121.322 E439.46723
G1 X123.407 Y80.663 E448.93398
G1 X123.407 Y78.825 E449.23658
G1 X80.909 Y121.322 E459.1314
G1 X79.071 Y121.322 E459.434
G1 X123.407 Y76.986 E469.75688
G1 X123.407 Y76.155 E469.89369
G1 X123.351 Y75.536 E469.99602
G1 X123.303 Y75.252 E470.04344
G1 X77.4 Y121.154 E480.73105
G1 X77.039 Y121.036 E480.79358
G1 X76.723 Y120.885 E480.85124
G1 X76.392 Y120.701 E480.91358
G1 X76.175 Y120.541 E480.95797
G1 X122.755 Y73.961 E491.80332
G1 X122.591 Y73.725 E491.85064
G1 X122.359 Y73.444 E491.91063
G1 X121.883 Y72.995 E492.01836
G1 X75.277 Y119.601 E502.86977
G1 X75.069 Y119.272 E502.93385
G1 X74.918 Y118.944 E502.9933
G1 X74.826 Y118.706 E503.03531
G1 X74.707 Y118.332 E503.09993
G1 X120.661 Y72.378 E513.79953
G1 X120.128 Y72.258 E513.88948
G1 X119.868 Y72.226 E513.93261
G1 X119.414 Y72.199 E514.00748
G1 X119.001 Y72.199 E514.07548
G1 X98.092 Y93.109 E518.9439
G1 X98.396 Y92.329 E519.08172
G1 X98.584 Y91.565 E519.21126
G1 X98.662 Y90.7 E519.35425
G1 X117.163 Y72.199 E523.66189
G1 X115.324 Y72.199 E523.96466
G1 X98.677 Y88.847 E527.84074
G1 X98.677 Y87.008 E528.14351
G1 X113.486 Y72.199 E531.59153
G1 X111.647 Y72.199 E531.8943
G1 X98.678 Y85.169 E534.91402
G1 X98.678 Y83.331 E535.21663
G1 X109.809 Y72.199 E537.80841
G1 X107.97 Y72.199 E538.11118
G1 X98.678 Y81.491 E540.27466
G1 X98.679 Y79.652 E540.57743
G1 X106.132 Y72.199 E542.31273
G1 X104.294 Y72.199 E542.61533
G1 X98.679 Y77.814 E543.92269
G1 X98.679 Y76.093 E544.20603
G1 X98.702 Y75.735 E544.26509
G1 X98.734 Y75.478 E544.30773
G1 X98.836 Y75.024 E544.38434
G1 X98.961 Y74.642 E544.45051
