;FLAVOR:Marlin
;TIME:2250
;Filament used: 2.74615m
;Layer height: 0.24
;MINX:50.336
;MINY:92.594
;MINZ:0.288
;MAXX:169.665
;MAXY:127.873
;MAXZ:12.318
;Generated with Cura_SteamEngine 5.2.1
M140 S60
M105
M190 S60
M104 S210
M105
M109 S210
M82 ;absolute extrusion mode
; Ender 3 Custom Start G-code
G92 E0 ; Reset Extruder
G28 ; Home all axes
G1 Z2.0 F3000 ; Move Z Axis up little to prevent scratching of Heat Bed
G1 X0.1 Y20 Z0.3 F5000.0 ; Move to start position
G1 X0.1 Y200.0 Z0.3 F1500.0 E15 ; Draw the first line
G1 X0.4 Y200.0 Z0.3 F5000.0 ; Move to side a little
G1 X0.4 Y20 Z0.3 F1500.0 E30 ; Draw the second line
G92 E0 ; Reset Extruder
G1 Z2.0 F3000 ; Move Z Axis up little to prevent scratching of Heat Bed
G1 X5 Y20 Z0.3 F5000.0 ; Move over to prevent blob squish
G92 E0
G92 E0
G1 F2700 E-5
;LAYER_COUNT:46
;LAYER:-6
M107
G0 F12000 X53.328 Y113.992 Z0.288
;TYPE:SUPPORT-INTERFACE
G1 F2700 E0
G1 F1125 X53.116 Y114.165 E0.03932
G1 X52.91 Y114.356 E0.07968
G1 X52.717 Y114.561 E0.12014
G1 X52.546 Y114.764 E0.15827
G1 X52.375 Y114.997 E0.1998
G1 X52.224 Y115.233 E0.24006
G1 X52.098 Y115.462 E0.27761
G1 X51.972 Y115.728 E0.3199
G1 X51.872 Y115.976 E0.35832
G1 X51.783 Y116.248 E0.39944
G1 X51.716 Y116.512 E0.43858
G1 X51.663 Y116.784 E0.4784
G1 X51.628 Y117.065 E0.51908
G1 X51.6 Y117.557 E0.58989
G1 X51.6 Y120.387 E0.99652
G1 X51.658 Y121.025 E1.08856
G1 X51.735 Y121.483 E1.15529
G1 X51.857 Y121.873 E1.21401
G1 X51.953 Y122.116 E1.25155
G1 X52.078 Y122.386 E1.2943
G1 X52.197 Y122.608 E1.33049
G1 X52.354 Y122.858 E1.37291
G1 X52.515 Y123.082 E1.41254
G1 X52.688 Y123.294 E1.45186
G1 X52.879 Y123.5 E1.49222
G1 X53.084 Y123.693 E1.53268
G1 X53.287 Y123.865 E1.57091
G1 X53.523 Y124.037 E1.61287
G1 X53.756 Y124.186 E1.65261
G1 X53.987 Y124.315 E1.69062
G1 X54.254 Y124.442 E1.73311
G1 X54.511 Y124.544 E1.77283
G1 X54.758 Y124.623 E1.8101
G1 X55.039 Y124.696 E1.85181
G1 X55.305 Y124.749 E1.89078
G1 X55.587 Y124.783 E1.93159
G1 X56.08 Y124.812 E2.00255
G1 X56.95 Y124.814 E2.12756
G1 X57.919 Y124.906 E2.26741
G1 X58.622 Y125.086 E2.37168
G1 X59.51 Y125.435 E2.50877
G1 X59.758 Y125.514 E2.54617
G1 X60.039 Y125.587 E2.58789
G1 X60.305 Y125.64 E2.62686
G1 X60.59 Y125.675 E2.66812
G1 X60.956 Y125.699 E2.72082
G1 X151.893 Y125.703 E15.78699
G1 X152.898 Y125.799 E15.93205
G1 X153.592 Y125.976 E16.03496
G1 X154.517 Y126.343 E16.17794
G1 X154.768 Y126.423 E16.2158
G1 X155.032 Y126.491 E16.25497
G1 X155.307 Y126.546 E16.29526
G1 X155.587 Y126.58 E16.33579
G1 X156.113 Y126.609 E16.41148
G1 X163.971 Y126.608 E17.54055
G1 X164.616 Y126.55 E17.6336
G1 X165.047 Y126.477 E17.69641
G1 X165.457 Y126.352 E17.75799
G1 X165.705 Y126.254 E17.79631
G1 X165.973 Y126.131 E17.83868
G1 X166.199 Y126.008 E17.87565
G1 X166.449 Y125.853 E17.91791
G1 X166.672 Y125.693 E17.95735
G1 X166.884 Y125.52 E17.99667
G1 X167.09 Y125.329 E18.03703
G1 X167.283 Y125.124 E18.07748
G1 X167.454 Y124.921 E18.11562
G1 X167.625 Y124.688 E18.15715
G1 X167.775 Y124.451 E18.19745
G1 X167.902 Y124.223 E18.23495
G1 X168.028 Y123.957 E18.27724
G1 X168.128 Y123.709 E18.31566
G1 X168.217 Y123.437 E18.35678
G1 X168.284 Y123.173 E18.39592
G1 X168.337 Y122.901 E18.43573
G1 X168.372 Y122.62 E18.47642
G1 X168.4 Y122.128 E18.54723
G1 X168.4 Y121.349 E18.65916
G1 X168.384 Y120.85 E18.73089
G1 X168.399 Y120.836 E18.73384
G1 X168.383 Y120.22 E18.82238
G1 X168.4 Y119.913 E18.86656
G1 X168.4 Y98.284 E21.97429
G1 X168.341 Y97.636 E22.06779
G1 X168.286 Y97.311 E22.11515
G1 X168.228 Y97.065 E22.15146
G1 X168.146 Y96.803 E22.19091
G1 X168.046 Y96.55 E22.23
G1 X167.926 Y96.29 E22.27114
G1 X167.801 Y96.059 E22.30888
G1 X167.643 Y95.808 E22.3515
G1 X167.488 Y95.592 E22.3897
G1 X167.309 Y95.372 E22.43045
G1 X167.112 Y95.16 E22.47203
G1 X166.927 Y94.984 E22.50872
G1 X166.705 Y94.8 E22.55015
G1 X166.483 Y94.637 E22.58972
G1 X166.24 Y94.481 E22.63121
G1 X166.01 Y94.353 E22.66903
G1 X165.755 Y94.233 E22.70953
G1 X165.483 Y94.123 E22.75168
G1 X165.233 Y94.045 E22.78931
G1 X164.968 Y93.976 E22.82866
G1 X164.693 Y93.921 E22.86895
G1 X164.413 Y93.887 E22.90948
G1 X163.888 Y93.858 E22.98503
G1 X156.029 Y93.859 E24.11424
G1 X155.384 Y93.917 E24.20729
G1 X154.953 Y93.99 E24.2701
G1 X154.543 Y94.115 E24.33169
G1 X154.295 Y94.213 E24.37
G1 X154.027 Y94.336 E24.41237
G1 X153.801 Y94.459 E24.44934
G1 X153.551 Y94.614 E24.49161
G1 X153.328 Y94.774 E24.53104
G1 X153.116 Y94.947 E24.57036
G1 X152.91 Y95.138 E24.61072
G1 X152.717 Y95.343 E24.65118
G1 X152.546 Y95.546 E24.68931
G1 X152.375 Y95.779 E24.73084
G1 X152.224 Y96.015 E24.7711
G1 X152.098 Y96.244 E24.80865
G1 X151.972 Y96.51 E24.85094
G1 X151.872 Y96.758 E24.88936
G1 X151.783 Y97.03 E24.93049
G1 X151.716 Y97.294 E24.96962
G1 X151.663 Y97.566 E25.00944
G1 X151.628 Y97.847 E25.05012
G1 X151.6 Y98.341 E25.12122
G1 X151.598 Y106.63 E26.31221
G1 X151.512 Y107.573 E26.44827
G1 X151.327 Y108.306 E26.55689
G1 X151.074 Y108.94 E26.65497
G1 X150.75 Y109.543 E26.75333
G1 X150.34 Y110.117 E26.85468
G1 X149.864 Y110.63 E26.95524
G1 X149.344 Y111.069 E27.05302
G1 X148.729 Y111.467 E27.15827
G1 X148.111 Y111.762 E27.25667
G1 X147.367 Y112.007 E27.36921
G1 X146.735 Y112.128 E27.46167
G1 X146.04 Y112.175 E27.56176
G1 X61.028 Y112.177 E39.77661
G1 X60.384 Y112.236 E39.86953
G1 X59.942 Y112.311 E39.93394
G1 X59.546 Y112.432 E39.99344
G1 X59.179 Y112.58 E40.0503
G1 X58.311 Y112.891 E40.18278
G1 X57.596 Y113.031 E40.28746
G1 X56.918 Y113.076 E40.38509
G1 X56.028 Y113.077 E40.51297
G1 X55.384 Y113.135 E40.60588
G1 X54.953 Y113.208 E40.66869
G1 X54.543 Y113.333 E40.73028
G1 X54.295 Y113.431 E40.76859
G1 X54.027 Y113.554 E40.81096
G1 X53.801 Y113.677 E40.84793
G1 X53.551 Y113.832 E40.89019
G1 X53.328 Y113.992 E40.92963
G0 F12000 X53.518 Y114.612
G1 F1125 X64.004 Y125.098 E43.06038
G0 F12000 X67.398 Y125.098
G1 F1125 X55.983 Y113.682 E45.38001
G0 F12000 X58.981 Y113.287
G1 F1125 X70.792 Y125.098 E47.78
G0 F12000 X74.187 Y125.099
G1 F1125 X61.864 Y112.775 E50.28413
G0 F12000 X65.258 Y112.775
G1 F1125 X77.581 Y125.099 E52.78826
G0 F12000 X80.975 Y125.099
G1 F1125 X68.652 Y112.775 E55.29238
G0 F12000 X72.046 Y112.775
G1 F1125 X84.369 Y125.099 E57.79651
G0 F12000 X87.764 Y125.099
G1 F1125 X75.44 Y112.775 E60.30075
G0 F12000 X78.834 Y112.775
G1 F1125 X91.158 Y125.099 E62.80498
G0 F12000 X94.552 Y125.099
G1 F1125 X82.228 Y112.775 E65.30921
G0 F12000 X85.622 Y112.775
G1 F1125 X97.947 Y125.099 E67.81354
G0 F12000 X101.341 Y125.1
G1 F1125 X89.016 Y112.775 E70.31798
G0 F12000 X92.411 Y112.775
G1 F1125 X104.735 Y125.1 E72.82231
G0 F12000 X108.13 Y125.1
G1 F1125 X95.805 Y112.775 E75.32674
G0 F12000 X99.199 Y112.775
G1 F1125 X111.524 Y125.1 E77.83118
G0 F12000 X114.918 Y125.101
G1 F1125 X102.593 Y112.775 E80.33571
G0 F12000 X105.986 Y112.775
G1 F1125 X118.313 Y125.101 E82.84045
G0 F12000 X121.707 Y125.101
G1 F1125 X109.38 Y112.775 E85.34519
G0 F12000 X112.775 Y112.775
G1 F1125 X125.101 Y125.101 E87.84983
G0 F12000 X128.496 Y125.102
G1 F1125 X116.169 Y112.775 E90.35467
G0 F12000 X119.563 Y112.775
G1 F1125 X131.89 Y125.102 E92.85951
G0 F12000 X135.284 Y125.102
G1 F1125 X122.957 Y112.775 E95.36435
G0 F12000 X126.351 Y112.775
G1 F1125 X138.678 Y125.102 E97.86919
G0 F12000 X142.073 Y125.102
G1 F1125 X129.745 Y112.775 E100.37414
G0 F12000 X133.139 Y112.775
G1 F1125 X145.467 Y125.102 E102.87908
G0 F12000 X148.861 Y125.102
G1 F1125 X136.533 Y112.775 E105.38402
G0 F12000 X139.927 Y112.775
G1 F1125 X152.291 Y125.138 E107.89628
G0 F12000 X156.555 Y126.008
G1 F1125 X143.322 Y112.775 E110.58522
G0 F12000 X146.677 Y112.736
G1 F1125 X159.949 Y126.008 E113.28208
G0 F12000 X163.343 Y126.008
G1 F1125 X149.205 Y111.87 E116.15492
G0 F12000 X150.98 Y110.25
G1 F1125 X166.094 Y125.365 E119.22618
G0 F12000 X167.578 Y123.455
G1 F1125 X152.042 Y107.919 E122.38309
G0 F12000 X152.195 Y104.677
G1 F1125 X167.783 Y120.266 E125.55066
G0 F12000 X167.799 Y116.887
G1 F1125 X152.197 Y101.285 E128.72098
G0 F12000 X152.224 Y97.918
G1 F1125 X167.799 Y113.493 E131.88582
G0 F12000 X167.799 Y110.099
G1 F1125 X153.299 Y95.599 E134.83221
G0 F12000 X155.595 Y94.501
G1 F1125 X167.799 Y106.705 E137.31206
G0 F12000 X167.799 Y103.311
G1 F1125 X158.946 Y94.458 E139.11098
G0 F12000 X162.34 Y94.458
G1 F1125 X167.799 Y99.917 E140.22025
G1 F2700 E135.22025
G0 F12000 X169.665 Y99.917
G0 X169.653 Y98.103
G0 X169.446 Y96.726
G0 X169.057 Y95.723
G0 X168.494 Y94.822
G0 X167.77 Y94.039
G0 X166.888 Y93.393
G0 X165.926 Y92.939
G0 X164.892 Y92.671
G0 X163.914 Y92.594
G0 X155.846 Y92.606
G0 X154.477 Y92.811
G0 X54.477 Y112.029
G0 X53.461 Y112.423
G0 X52.559 Y112.987
G0 X51.772 Y113.72
G0 X51.138 Y114.585
G0 X50.683 Y115.545
G0 X50.413 Y116.584
G0 X50.336 Y117.53
G0 X50.347 Y120.567
G0 X50.552 Y121.934
G0 X50.946 Y122.951
G0 X51.51 Y123.853
G0 X52.243 Y124.64
G0 X53.108 Y125.274
G0 X54.068 Y125.729
G0 X55.107 Y125.999
G0 X59.934 Y126.841
G0 X61.053 Y126.967
G0 X60.582 Y125.07
G1 F2700 E140.22025
G1 F1125 X52.279 Y116.768 E141.90731
G0 F12000 X52.2 Y120.082
G1 F1125 X56.329 Y124.211 E142.74632
G1 F2700 E137.74632
G0 F300 X56.329 Y124.211 Z0.648
G0 F12000 X56.329 Y126.077
G0 X55.107 Y125.999
G0 X54.068 Y125.729
G0 X53.108 Y125.274
G0 X52.243 Y124.64
G0 X51.51 Y123.853
G0 X50.946 Y122.951
G0 X50.552 Y121.934
G0 X50.347 Y120.567
G0 X50.368 Y116.948
G0 X50.573 Y115.881
G0 X50.972 Y114.884
G0 X51.551 Y113.982
G0 X52.285 Y113.211
G0 X53.166 Y112.581
G0 X54.028 Y112.185
G0 X55.135 Y111.894
G0 X55.43 Y113.632
;TIME_ELAPSED:66.927756
;LAYER:-5
;TYPE:SUPPORT
G1 F2700 E142.74632
G1 F1125 X55.056 Y113.694 E142.80874
G1 X54.715 Y113.801 E142.86758
G1 X54.478 Y113.895 E142.90956
G1 X54.15 Y114.046 E142.969
G1 X53.829 Y114.246 E143.03127
G1 X53.626 Y114.392 E143.07244
G1 X53.274 Y114.699 E143.14934
G1 X53.006 Y114.982 E143.21351
G1 X52.72 Y115.367 E143.29247
G1 X52.537 Y115.7 E143.35502
G1 X52.384 Y116.018 E143.41312
G1 X52.26 Y116.4 E143.47925
G1 X52.157 Y116.855 E143.55605
G1 X52.14 Y116.999 E143.57992
G1 X55.514 Y113.624 E144.36562
G1 X56.054 Y113.576 E144.45487
G1 X56.911 Y113.576 E144.59597
G1 X57.435 Y113.542 E144.68242
G1 X52.102 Y118.875 E145.92412
G1 X52.1 Y120.357 E146.16811
G1 X52.13 Y120.686 E146.2225
G1 X60.014 Y112.802 E148.05815
G1 X60.437 Y112.731 E148.12877
G1 X61.055 Y112.676 E148.23092
G1 X61.979 Y112.676 E148.38304
G1 X52.502 Y122.152 E150.58948
G1 X52.769 Y122.581 E150.67267
G1 X52.916 Y122.785 E150.71407
G1 X53.285 Y123.208 E150.80649
G1 X63.817 Y112.676 E153.25868
G1 X65.656 Y112.676 E153.56145
G1 X54.382 Y123.95 E156.18641
G1 X54.539 Y124.025 E156.21506
G1 X54.921 Y124.15 E156.28123
G1 X55.379 Y124.252 E156.35848
G1 X55.857 Y124.313 E156.43781
G1 X67.494 Y112.676 E159.14729
G1 X69.333 Y112.676 E159.45006
G1 X57.632 Y124.377 E162.17444
G1 X58.023 Y124.414 E162.2391
G1 X58.786 Y124.609 E162.36875
G1 X59.109 Y124.738 E162.42602
G1 X71.171 Y112.676 E165.23444
G1 X73.01 Y112.676 E165.53721
G1 X60.523 Y125.162 E168.44448
G1 X60.978 Y125.198 E168.51962
G1 X62.325 Y125.199 E168.74139
G1 X74.848 Y112.676 E171.65716
G1 X76.687 Y112.676 E171.95993
G1 X64.163 Y125.199 E174.87581
G1 X66.002 Y125.199 E175.17858
G1 X78.525 Y112.676 E178.09434
G1 X80.364 Y112.676 E178.39711
G1 X67.84 Y125.199 E181.31299
G1 X69.679 Y125.199 E181.61576
G1 X82.202 Y112.676 E184.53153
G1 X84.041 Y112.676 E184.8343
G1 X71.517 Y125.199 E187.75018
G1 X73.355 Y125.199 E188.05278
G1 X85.879 Y112.676 E190.96866
G1 X87.718 Y112.676 E191.27143
G1 X75.194 Y125.199 E194.18731
G1 X77.032 Y125.2 E194.48992
G1 X89.556 Y112.676 E197.40592
G1 X91.394 Y112.676 E197.70852
G1 X78.87 Y125.2 E200.62452
G1 X80.709 Y125.2 E200.92729
G1 X93.233 Y112.676 E203.84329
G1 X95.071 Y112.676 E204.14589
G1 X82.547 Y125.2 E207.06189
G1 X84.386 Y125.2 E207.36466
G1 X96.91 Y112.676 E210.28065
G1 X98.748 Y112.676 E210.58326
G1 X86.224 Y125.2 E213.49926
G1 X88.063 Y125.2 E213.80203
G1 X100.587 Y112.676 E216.71802
G1 X102.425 Y112.676 E217.02063
G1 X89.901 Y125.2 E219.93663
G1 X91.739 Y125.201 E220.23923
G1 X104.264 Y112.676 E223.15546
G1 X106.102 Y112.676 E223.45807
G1 X93.577 Y125.201 E226.3743
G1 X95.416 Y125.201 E226.67707
G1 X107.941 Y112.676 E229.5933
G1 X109.779 Y112.676 E229.8959
G1 X97.254 Y125.201 E232.81213
G1 X99.093 Y125.201 E233.1149
G1 X111.618 Y112.676 E236.03113
G1 X113.456 Y112.676 E236.33374
G1 X100.931 Y125.201 E239.24997
G1 X102.77 Y125.201 E239.55273
G1 X115.295 Y112.676 E242.46897
G1 X117.133 Y112.676 E242.77157
G1 X104.608 Y125.201 E245.6878
G1 X106.446 Y125.201 E245.99041
G1 X118.972 Y112.676 E248.90675
G1 X120.81 Y112.676 E249.20936
G1 X108.284 Y125.201 E252.1257
G1 X110.123 Y125.201 E252.42847
G1 X122.649 Y112.676 E255.34482
G1 X124.487 Y112.676 E255.64742
G1 X111.961 Y125.201 E258.56377
G1 X113.8 Y125.201 E258.86654
G1 X126.326 Y112.676 E261.78289
G1 X128.164 Y112.676 E262.08549
G1 X115.638 Y125.201 E265.00184
G1 X117.477 Y125.201 E265.30461
G1 X130.002 Y112.676 E268.22084
G1 X131.841 Y112.676 E268.52361
G1 X119.315 Y125.201 E271.43996
G1 X121.154 Y125.201 E271.74272
G1 X133.679 Y112.676 E274.65896
G1 X135.518 Y112.676 E274.96172
G1 X122.992 Y125.202 E277.87819
G1 X124.83 Y125.202 E278.18079
G1 X137.356 Y112.676 E281.09726
G1 X139.195 Y112.676 E281.40002
G1 X126.668 Y125.202 E284.31661
G1 X128.507 Y125.202 E284.61937
G1 X141.033 Y112.676 E287.53584
G1 X142.872 Y112.676 E287.83861
G1 X130.345 Y125.202 E290.75519
G1 X132.184 Y125.202 E291.05796
G1 X144.71 Y112.676 E293.97442
G1 X146.033 Y112.676 E294.19224
G1 X146.583 Y112.641 E294.28297
G1 X134.022 Y125.202 E297.20758
G1 X135.861 Y125.202 E297.51035
G1 X149.493 Y111.57 E300.68433
G1 X149.606 Y111.498 E300.70639
G1 X150.199 Y111.003 E300.83356
G1 X150.724 Y110.438 E300.96054
G1 F2700 E295.96054
G0 F12000 X149.356 Y109.319
G0 X150.413 Y97.366
G0 X150.683 Y96.327
G0 X151.138 Y95.367
G0 X151.772 Y94.502
G0 X152.559 Y93.769
G0 X153.461 Y93.205
G0 X154.036 Y92.983
G0 X154.78 Y92.736
G0 X155.429 Y94.415
G1 F2700 E300.96054
G1 F1125 X155.055 Y94.477 E301.02296
G1 X154.715 Y94.584 E301.08164
G1 X154.476 Y94.678 E301.12392
G1 X154.149 Y94.828 E301.18315
G1 X153.828 Y95.028 E301.24542
G1 X153.625 Y95.174 E301.28659
G1 X153.273 Y95.482 E301.36359
G1 X153.005 Y95.764 E301.42764
G1 X152.72 Y96.15 E301.50664
G1 X152.536 Y96.482 E301.56913
G1 X152.384 Y96.801 E301.62731
G1 X152.259 Y97.182 E301.69332
G1 X152.157 Y97.638 E301.77025
G1 X152.124 Y97.908 E301.81504
G1 X155.637 Y94.395 E302.63298
G1 X156.054 Y94.359 E302.70189
G1 X157.512 Y94.358 E302.94193
G1 X152.102 Y99.769 E304.20167
G1 X152.1 Y101.609 E304.5046
G1 X159.351 Y94.358 E306.19288
G1 X161.19 Y94.357 E306.49564
G1 X152.1 Y103.448 E308.61221
G1 X152.099 Y105.287 E308.91498
G1 X163.029 Y94.357 E311.45984
G1 X163.876 Y94.357 E311.59929
G1 X164.357 Y94.383 E311.6786
G1 X164.789 Y94.436 E311.75025
G1 X152.049 Y107.175 E314.71643
G1 X152.007 Y107.649 E314.79477
G1 X151.819 Y108.412 E314.92415
G1 X151.538 Y109.132 E315.05139
G1 X151.173 Y109.81 E315.17817
G1 X150.972 Y110.091 E315.23505
G1 X166.088 Y94.975 E318.75455
G1 X166.299 Y95.112 E318.79597
G1 X166.677 Y95.424 E318.87666
G1 X167.063 Y95.839 E318.96997
G1 X137.699 Y125.203 E325.80687
G1 X139.537 Y125.203 E326.10948
G1 X167.696 Y97.044 E332.66582
G1 X167.779 Y97.303 E332.71059
G1 X167.842 Y97.681 E332.77369
G1 X167.899 Y98.311 E332.87783
G1 X167.898 Y98.68 E332.93858
G1 X141.376 Y125.203 E339.11389
G1 X143.214 Y125.203 E339.4165
G1 X167.898 Y100.518 E345.16386
G1 X167.898 Y102.357 E345.46663
G1 X145.053 Y125.203 E350.78581
G1 X146.891 Y125.203 E351.08841
G1 X167.898 Y104.195 E355.97965
G1 X167.898 Y106.034 E356.28242
G1 X148.73 Y125.203 E360.74547
G1 X150.568 Y125.203 E361.04808
G1 X167.898 Y107.872 E365.08319
G1 X167.898 Y109.711 E365.38595
G1 X152.363 Y125.246 E369.00301
G1 X152.99 Y125.305 E369.1067
G1 X153.908 Y125.539 E369.26267
G1 X167.898 Y111.549 E372.52
G1 X167.898 Y113.388 E372.82277
G1 X155.251 Y126.035 E375.7674
G1 X155.641 Y126.082 E375.83208
G1 X156.122 Y126.108 E375.91138
G1 X157.016 Y126.108 E376.05857
G1 X167.898 Y115.226 E378.59226
G1 X167.898 Y117.065 E378.89502
G1 X158.855 Y126.108 E381.00053
G1 X160.693 Y126.108 E381.30314
G1 X167.898 Y118.903 E382.9807
G1 X167.898 Y119.776 E383.12442
G1 X167.833 Y119.775 E383.13513
