;FLAVOR:Marlin
;TIME:2312
;Filament used: 2.38331m
;Layer height: 0.24
;MINX:70.675
;MINY:93.366
;MINZ:0.24
;MAXX:149.325
;MAXY:127.334
;MAXZ:16.56
;Generated with Cura_SteamEngine 5.2.1
M140 S60
M105
M190 S60
M104 S210
M105
M109 S210
M82 ;absolute extrusion mode
; Ender 3 Custom Start G-code
G92 E0 ; Reset Extruder
G28 ; Home all axes
G1 Z2.0 F3000 ; Move Z Axis up little to prevent scratching of Heat Bed
G1 X0.1 Y20 Z0.3 F5000.0 ; Move to start position
G1 X0.1 Y200.0 Z0.3 F1500.0 E15 ; Draw the first line
G1 X0.4 Y200.0 Z0.3 F5000.0 ; Move to side a little
G1 X0.4 Y20 Z0.3 F1500.0 E30 ; Draw the second line
G92 E0 ; Reset Extruder
G1 Z2.0 F3000 ; Move Z Axis up little to prevent scratching of Heat Bed
G1 X5 Y20 Z0.3 F5000.0 ; Move over to prevent blob squish
G92 E0
G92 E0
G1 F2700 E-5
;LAYER_COUNT:69
;LAYER:0
M107
G0 F6000 X73.802 Y96.337 Z0.24
;TYPE:SKIRT
G1 F2700 E0
G1 F600 X74.457 Y95.894 E0.0434
G1 X75.153 Y95.519 E0.08678
G1 X75.884 Y95.216 E0.13021
G1 X76.641 Y94.988 E0.1736
G1 X77.418 Y94.839 E0.21701
G1 X78.29 Y94.765 E0.26504
G1 X78.83 Y94.753 E0.29468
G1 X83.417 Y94.753 E0.54641
G1 X86.054 Y94.716 E0.69114
G1 X88.683 Y94.604 E0.83555
G1 X91.253 Y94.422 E0.97695
G1 X93.858 Y94.164 E1.12061
G1 X96.437 Y93.834 E1.26329
G1 X98.394 Y93.526 E1.37201
G1 X98.906 Y93.453 E1.4004
G1 X99.79 Y93.378 E1.44908
G1 X100.33 Y93.366 E1.47873
G1 X119.293 Y93.366 E2.5194
G1 X120.128 Y93.378 E2.56523
G1 X121.221 Y93.472 E2.62543
G1 X122.215 Y93.628 E2.68065
G1 X124.83 Y94.002 E2.82562
G1 X127.436 Y94.298 E2.96956
G1 X130.054 Y94.521 E3.11375
G1 X132.62 Y94.668 E3.2548
G1 X135.27 Y94.744 E3.40029
G1 X136.625 Y94.753 E3.47465
G1 X140.916 Y94.754 E3.71014
G1 X141.614 Y94.765 E3.74845
G1 X142.404 Y94.817 E3.7919
G1 X143.183 Y94.949 E3.83526
G1 X143.946 Y95.159 E3.87869
G1 X144.684 Y95.445 E3.92212
G1 X145.388 Y95.804 E3.96549
G1 X146.053 Y96.232 E4.00889
G1 X146.672 Y96.725 E4.05232
G1 X147.237 Y97.278 E4.09571
G1 X147.744 Y97.885 E4.13911
G1 X148.187 Y98.54 E4.18251
G1 X148.562 Y99.237 E4.22594
G1 X148.864 Y99.968 E4.26935
G1 X149.091 Y100.726 E4.31277
G1 X149.24 Y101.502 E4.35614
G1 X149.313 Y102.368 E4.40383
G1 X149.325 Y102.908 E4.43347
G1 X149.324 Y118.87 E5.30945
G1 X149.315 Y119.597 E5.34935
G1 X149.266 Y120.386 E5.39274
G1 X149.136 Y121.167 E5.43619
G1 X148.929 Y121.93 E5.47957
G1 X148.646 Y122.668 E5.52295
G1 X148.289 Y123.374 E5.56637
G1 X147.864 Y124.041 E5.60977
G1 X147.373 Y124.661 E5.65317
G1 X146.822 Y125.228 E5.69656
G1 X146.216 Y125.737 E5.73999
G1 X145.562 Y126.182 E5.78341
G1 X144.867 Y126.559 E5.8268
G1 X144.137 Y126.864 E5.87021
G1 X143.38 Y127.094 E5.91363
G1 X142.604 Y127.245 E5.95702
G1 X141.71 Y127.322 E6.00626
G1 X141.17 Y127.334 E6.0359
G1 X122.095 Y127.333 E7.08273
G1 X121.398 Y127.323 E7.12098
G1 X120.749 Y127.287 E7.15665
G1 X119.038 Y127.113 E7.25103
G1 X116.457 Y126.894 E7.39319
G1 X113.829 Y126.746 E7.53764
G1 X111.233 Y126.673 E7.68016
G1 X108.635 Y126.675 E7.82274
G1 X106.002 Y126.75 E7.96729
G1 X103.447 Y126.896 E8.10774
G1 X100.764 Y127.126 E8.25552
G1 X99.325 Y127.28 E8.33494
G1 X98.71 Y127.322 E8.36877
G1 X98.17 Y127.334 E8.39841
G1 X79.106 Y127.333 E9.44463
G1 X78.408 Y127.324 E9.48294
G1 X77.619 Y127.274 E9.52632
G1 X76.838 Y127.145 E9.56977
G1 X76.075 Y126.937 E9.61317
G1 X75.337 Y126.653 E9.65656
G1 X74.631 Y126.296 E9.69998
G1 X73.965 Y125.87 E9.74337
G1 X73.345 Y125.379 E9.78677
G1 X72.778 Y124.828 E9.83016
G1 X72.269 Y124.222 E9.87359
G1 X71.824 Y123.568 E9.917
G1 X71.448 Y122.872 E9.96041
G1 X71.144 Y122.142 E10.00381
G1 X70.914 Y121.385 E10.04723
G1 X70.763 Y120.609 E10.09062
G1 X70.687 Y119.711 E10.14007
G1 X70.675 Y119.167 E10.16993
G1 X70.676 Y103.134 E11.04981
G1 X70.686 Y102.469 E11.08631
G1 X70.738 Y101.68 E11.12971
G1 X70.869 Y100.9 E11.17311
G1 X71.078 Y100.137 E11.21653
G1 X71.364 Y99.4 E11.25991
G1 X71.722 Y98.694 E11.30335
G1 X72.149 Y98.029 E11.34672
G1 X72.642 Y97.41 E11.39015
G1 X73.195 Y96.844 E11.43358
G1 X73.802 Y96.337 E11.47698
G0 F6000 X74.331 Y96.632
G1 F600 X74.978 Y96.227 E11.51887
G1 X75.663 Y95.892 E11.56072
G1 X76.379 Y95.631 E11.60254
G1 X77.119 Y95.446 E11.6444
G1 X77.874 Y95.34 E11.68624
G1 X78.305 Y95.315 E11.70993
G1 X78.83 Y95.303 E11.73875
G1 X83.425 Y95.303 E11.99092
G1 X86.085 Y95.265 E12.13692
G1 X88.675 Y95.155 E12.27918
G1 X91.309 Y94.969 E12.42409
G1 X93.944 Y94.708 E12.56941
G1 X96.528 Y94.377 E12.71237
G1 X98.472 Y94.071 E12.82037
G1 X98.984 Y93.998 E12.84875
G1 X99.806 Y93.928 E12.89403
G1 X100.33 Y93.916 E12.92279
G1 X119.293 Y93.916 E13.96347
G1 X120.119 Y93.928 E14.0088
G1 X121.136 Y94.015 E14.06482
G1 X122.13 Y94.171 E14.12004
G1 X124.792 Y94.551 E14.26761
G1 X127.362 Y94.844 E14.40956
G1 X130.013 Y95.07 E14.55557
G1 X132.609 Y95.218 E14.69827
G1 X135.25 Y95.293 E14.84326
G1 X136.621 Y95.303 E14.9185
G1 X140.908 Y95.304 E15.15377
G1 X141.606 Y95.315 E15.19208
G1 X142.366 Y95.367 E15.23389
G1 X143.118 Y95.498 E15.27578
G1 X143.851 Y95.707 E15.31761
G1 X144.559 Y95.992 E15.35949
G1 X145.232 Y96.35 E15.40133
G1 X145.865 Y96.776 E15.4432
G1 X146.449 Y97.265 E15.485
G1 X146.979 Y97.814 E15.52688
G1 X147.449 Y98.415 E15.56875
G1 X147.853 Y99.061 E15.61056
G1 X148.188 Y99.747 E15.65246
G1 X148.449 Y100.463 E15.69428
G1 X148.633 Y101.203 E15.73613
G1 X148.739 Y101.959 E15.77802
G1 X148.763 Y102.384 E15.80138
G1 X148.775 Y102.908 E15.83015
G1 X148.774 Y118.863 E16.70575
G1 X148.765 Y119.59 E16.74565
G1 X148.716 Y120.351 E16.7875
G1 X148.587 Y121.103 E16.82937
G1 X148.38 Y121.837 E16.87122
G1 X148.098 Y122.545 E16.91304
G1 X147.743 Y123.22 E16.9549
G1 X147.319 Y123.854 E16.99676
G1 X146.831 Y124.44 E17.03861
G1 X146.285 Y124.972 E17.08044
G1 X145.686 Y125.444 E17.12229
G1 X145.04 Y125.85 E17.16417
G1 X144.356 Y126.187 E17.20601
G1 X143.64 Y126.45 E17.24787
G1 X142.901 Y126.637 E17.28971
G1 X142.146 Y126.745 E17.33156
G1 X141.695 Y126.772 E17.35636
G1 X141.17 Y126.784 E17.38518
G1 X122.103 Y126.783 E18.43156
G1 X121.406 Y126.773 E18.46981
G1 X120.802 Y126.739 E18.50301
G1 X119.078 Y126.564 E18.59811
G1 X116.462 Y126.342 E18.74219
G1 X113.874 Y126.196 E18.88444
G1 X111.249 Y126.123 E19.02856
G1 X108.619 Y126.125 E19.17289
G1 X105.991 Y126.2 E19.31717
G1 X103.403 Y126.348 E19.45943
G1 X100.703 Y126.579 E19.60815
G1 X99.266 Y126.733 E19.68746
G1 X98.694 Y126.772 E19.71892
G1 X98.17 Y126.784 E19.74769
G1 X79.113 Y126.783 E20.79352
G1 X78.415 Y126.774 E20.83183
G1 X77.654 Y126.725 E20.87368
G1 X76.903 Y126.595 E20.91551
G1 X76.169 Y126.388 E20.95736
G1 X75.46 Y126.105 E20.99925
G1 X74.786 Y125.75 E21.04106
G1 X74.152 Y125.326 E21.08292
G1 X73.566 Y124.838 E21.12477
G1 X73.034 Y124.291 E21.16664
G1 X72.563 Y123.692 E21.20846
G1 X72.157 Y123.046 E21.25033
G1 X71.82 Y122.362 E21.29218
G1 X71.558 Y121.646 E21.33402
G1 X71.371 Y120.906 E21.37591
G1 X71.263 Y120.151 E21.41776
G1 X71.237 Y119.697 E21.44272
G1 X71.225 Y119.167 E21.47181
G1 X71.226 Y103.143 E22.3512
G1 X71.236 Y102.478 E22.38769
G1 X71.287 Y101.717 E22.42955
G1 X71.418 Y100.965 E22.47144
G1 X71.627 Y100.232 E22.51327
G1 X71.911 Y99.524 E22.55514
G1 X72.268 Y98.85 E22.59699
G1 X72.693 Y98.217 E22.63883
G1 X73.183 Y97.632 E22.68071
G1 X73.731 Y97.102 E22.72255
G1 X74.331 Y96.632 E22.76438
G1 F2700 E17.76438
;MESH:SensorHouse.STL(2)
G0 F6000 X79.089 Y101.913
G0 X79.089 Y103.167
G0 X80.658 Y104.008
G0 X97.157 Y112.409
G1 F2700 E22.76438
G0 F6000 X96.318 Y113.007
;TYPE:WALL-INNER
G1 F600 X96 Y113.07 E22.78217
G1 X81 Y113.07 E23.60536
G1 X80.682 Y113.007 E23.62315
G1 X80.339 Y112.74 E23.647
G1 F526.3 X80.1 Y112.389 E23.67357
G1 F470.1 X80.1 Y105.245 E24.17398
G1 F528 X80.463 Y104.617 E24.21921
G1 F493.3 X80.846 Y104.304 E24.25223
G1 F420.4 X96 Y104.304 E25.43921
G1 F495.5 X96.537 Y104.617 E25.48051
G1 F528 X96.9 Y105.245 E25.52575
G1 F470.1 X96.9 Y112.389 E26.02616
G1 F526.3 X96.661 Y112.741 E26.05277
G1 F600 X96.318 Y113.007 E26.07659
G0 F6000 X96.241 Y112.426
;TYPE:WALL-OUTER
G1 F600 X96.116 Y112.522 E26.08524
G1 X96 Y112.545 E26.09173
G1 X80.914 Y112.545 E26.91964
G1 X80.759 Y112.425 E26.9304
G1 X80.704 Y112.297 E26.93804
G1 X80.7 Y105.245 E27.32505
G1 X80.804 Y105.016 E27.33886
G1 X80.948 Y104.949 E27.34757
G1 X96 Y104.945 E28.17361
G1 X96.196 Y105.016 E28.18505
G1 X96.3 Y105.245 E28.19886
G1 X96.296 Y112.297 E28.58587
G1 X96.241 Y112.426 E28.59356
G0 F6000 X97.262 Y112.365
G0 X97.405 Y112.938
G0 X97.675 Y118.684
;TYPE:WALL-INNER
G1 F600 X97.675 Y113.078 E28.90121
G1 F524.6 X97.596 Y112.462 E28.94019
G1 F468.8 X97.6 Y105.245 E29.44715
G1 F528 X97.675 Y104.093 E29.51915
G1 F600 X97.675 Y103.403 E29.55701
G1 X96.985 Y103.403 E29.59488
G1 F542.8 X96.493 Y103.461 E29.62494
G1 F455.8 X96 Y103.52 E29.6608
G1 F418.8 X80.768 Y103.525 E30.85845
G1 F491.1 X80.015 Y103.403 E30.9096
G1 F600 X79.325 Y103.403 E30.94747
G1 X79.325 Y104.093 E30.98533
G1 F528 X79.4 Y105.245 E31.05733
G1 F468.8 X79.404 Y112.462 E31.56429
G1 F524.6 X79.325 Y113.078 E31.60327
G1 F600 X79.325 Y118.684 E31.91092
G1 X97.675 Y118.684 E32.91795
G0 F6000 X98.2 Y119.209
;TYPE:WALL-OUTER
G1 F600 X98.2 Y104.093 E33.74751
G1 X98.2 Y102.878 E33.81418
G1 X78.8 Y102.878 E34.87884
G1 X78.8 Y119.209 E35.77507
G1 X98.2 Y119.209 E36.83973
G0 F6000 X97.855 Y118.864
G0 X97.5 Y118.189
G0 X97.18 Y118.189
;TYPE:SKIN
G1 F600 X97.18 Y113.119 E37.11797
G1 X97.136 Y112.943 E37.12792
G1 X97.01 Y113.087 E37.13843
G1 X96.521 Y113.466 E37.17238
G1 X95.992 Y113.565 E37.20191
G1 X80.953 Y113.56 E38.02724
G1 X80.478 Y113.465 E38.05383
G1 X79.963 Y113.061 E38.08975
G1 X79.864 Y112.94 E38.09833
G1 X79.82 Y113.109 E38.10791
G1 X79.82 Y118.189 E38.3867
G1 X97.18 Y118.189 E39.3394
G0 F6000 X97.5 Y118.189
G0 X97.439 Y113.073
G0 X97.249 Y112.423
G0 X96.383 Y113.17
G0 X96.597 Y113.709
G1 F600 X96.904 Y114.016 E39.36323
G0 F6000 X96.904 Y114.794
G1 F600 X95.949 Y113.839 E39.43735
G0 F6000 X95.171 Y113.839
G1 F600 X96.904 Y115.572 E39.57185
G0 F6000 X96.904 Y116.35
G1 F600 X94.393 Y113.839 E39.76673
G0 F6000 X93.615 Y113.839
G1 F600 X96.904 Y117.127 E40.02195
G0 F6000 X96.904 Y117.905
G1 F600 X92.838 Y113.839 E40.33752
G0 F6000 X92.06 Y113.839
G1 F600 X96.133 Y117.912 E40.65363
G0 F6000 X95.356 Y117.912
G1 F600 X91.282 Y113.839 E40.96977
G0 F6000 X90.504 Y113.839
G1 F600 X94.578 Y117.912 E41.28592
G0 F6000 X93.8 Y117.912
G1 F600 X89.726 Y113.839 E41.60207
G0 F6000 X88.949 Y113.839
G1 F600 X93.022 Y117.912 E41.91818
G0 F6000 X92.244 Y117.912
G1 F600 X88.171 Y113.839 E42.23429
G0 F6000 X87.393 Y113.839
G1 F600 X91.467 Y117.912 E42.55044
G0 F6000 X90.689 Y117.912
G1 F600 X86.615 Y113.839 E42.86659
G0 F6000 X85.837 Y113.839
G1 F600 X89.911 Y117.912 E43.18273
G0 F6000 X89.133 Y117.912
G1 F600 X85.059 Y113.839 E43.49888
G0 F6000 X84.282 Y113.839
G1 F600 X88.355 Y117.912 E43.81499
G0 F6000 X87.578 Y117.912
G1 F600 X83.504 Y113.839 E44.13114
G0 F6000 X82.726 Y113.839
G1 F600 X86.8 Y117.912 E44.44729
G0 F6000 X86.022 Y117.912
G1 F600 X81.948 Y113.839 E44.76344
G0 F6000 X81.17 Y113.839
G1 F600 X85.244 Y117.912 E45.07958
G0 F6000 X84.466 Y117.912
G1 F600 X80.094 Y113.54 E45.4189
G0 F6000 X80.094 Y114.318
G1 F600 X83.688 Y117.912 E45.69783
G0 F6000 X82.911 Y117.912
G1 F600 X80.094 Y115.096 E45.91642
G0 F6000 X80.094 Y115.874
G1 F600 X82.133 Y117.912 E46.07463
G0 F6000 X81.355 Y117.912
G1 F600 X80.094 Y116.652 E46.17246
G0 F6000 X80.094 Y117.429
G1 F600 X80.577 Y117.912 E46.20995
G1 F2700 E41.20995
G0 F6000 X80.577 Y118.509
G0 X79.572 Y118.437
G0 X79.561 Y113.073
G0 X79.751 Y112.423
G0 X81.003 Y113.306
G0 X96.603 Y112.848
G0 X96.603 Y104.642
G0 X95.46 Y103.81
G0 X96.55 Y103.678
G1 F2700 E46.20995
G0 F6000 X97.102 Y104.1
G1 F355.6 X97.043 Y104.2 E46.2207
G1 X96.928 Y104.2 E46.23135
G1 X96.87 Y104.1 E46.24205
G1 X96.929 Y104 E46.2528
G1 X97.043 Y104 E46.26336
G0 F6000 X96.57 Y103.764
G0 X80.345 Y103.768
G0 X80.127 Y104.104
G1 F357.9 X80.069 Y104.203 E46.27391
G1 X79.955 Y104.203 E46.2844
G1 X79.897 Y104.104 E46.29496
G1 X79.955 Y104.005 E46.30551
G1 X80.069 Y104.005 E46.316
G1 F2700 E41.316
;MESH:SensorHouse.STL
G0 F6000 X80.371 Y103.688
G0 X80.644 Y103.894
G0 X97.905 Y117.022
G0 X100.595 Y117.022
G0 X101.951 Y117.022
G1 F2700 E46.316
G0 F6000 X100.825 Y117.297
;TYPE:WALL-INNER
G1 F600 X101.515 Y117.297 E46.35387
G1 F542.8 X102.007 Y117.239 E46.38392
G1 F455.2 X102.5 Y117.18 E46.41984
G1 F418.3 X117.732 Y117.175 E47.61901
G1 F491.1 X118.485 Y117.297 E47.67016
G1 F600 X119.175 Y117.297 E47.70802
G1 X119.175 Y116.607 E47.74589
G1 F524.6 X119.096 Y115.672 E47.80478
G1 F468.8 X119.1 Y108.455 E48.31174
G1 F528 X119.175 Y107.621 E48.36396
G1 F600 X119.175 Y104.823 E48.51751
G1 X119.175 Y102.016 E48.67156
G1 X100.825 Y102.016 E49.67859
G1 X100.825 Y107.621 E49.98619
G1 F528 X100.9 Y108.455 E50.03841
G1 F468.8 X100.904 Y115.672 E50.54537
G1 F524.6 X100.825 Y116.607 E50.60427
G1 F600 X100.825 Y117.297 E50.64213
G0 F6000 X100.3 Y117.822
;TYPE:WALL-OUTER
G1 F600 X119.7 Y117.822 E51.70679
G1 X119.7 Y104.823 E52.42016
G1 X119.7 Y101.491 E52.60302
G1 X100.3 Y101.491 E53.66768
G1 X100.3 Y117.822 E54.56391
G0 F6000 X100.645 Y117.477
G0 X103.04 Y116.891
G0 X102.53 Y116.688
G0 X102.5 Y116.397
;TYPE:WALL-INNER
G1 F494.8 X101.963 Y116.083 E54.60531
G1 F526.3 X101.6 Y115.6 E54.64311
G1 F470.1 X101.6 Y108.455 E55.14359
G1 F528 X101.84 Y107.959 E55.17795
G1 F600 X102.182 Y107.693 E55.20173
G1 X102.5 Y107.63 E55.21952
G1 X117.5 Y107.63 E56.04271
G1 X117.818 Y107.693 E56.0605
G1 X118.16 Y107.959 E56.08428
G1 F528 X118.4 Y108.455 E56.11864
G1 F470.1 X118.4 Y115.6 E56.61912
G1 F526.3 X118.037 Y116.083 E56.65692
G1 F491.1 X117.664 Y116.388 E56.68922
G1 F418.3 X117.5 Y116.397 E56.70216
G1 F420.9 X102.5 Y116.397 E57.87557
G0 F6000 X102.304 Y115.684
;TYPE:WALL-OUTER
G1 F600 X102.204 Y115.507 E57.88673
G1 X102.2 Y108.455 E58.27374
G1 X102.26 Y108.274 E58.2842
G1 X102.414 Y108.155 E58.29488
G1 X117.588 Y108.155 E59.12762
G1 X117.74 Y108.274 E59.13821
G1 X117.8 Y108.455 E59.14868
G1 X117.796 Y115.507 E59.53569
G1 X117.696 Y115.684 E59.54684
G1 X117.552 Y115.751 E59.55556
G1 X102.5 Y115.755 E60.3816
G1 X102.304 Y115.684 E60.39304
G0 F6000 X102.369 Y116.637
G0 X101.931 Y116.936
G0 X101.573 Y116.5
;TYPE:SKIN
G1 F355.6 X101.459 Y116.5 E60.4036
G1 X101.4 Y116.6 E60.41435
G1 X101.458 Y116.7 E60.42505
G1 X101.573 Y116.7 E60.4357
G1 X101.632 Y116.6 E60.44645
G0 F6000 X101.951 Y117.022
G0 X103.04 Y116.891
G0 X101.949 Y116.372
G0 X101.094 Y108.152
G0 X101.359 Y107.808
G1 F600 X101.456 Y107.647 E60.45677
G1 X101.977 Y107.235 E60.49322
G1 X102.453 Y107.14 E60.51986
G1 X117.546 Y107.14 E61.34815
G1 X118.022 Y107.235 E61.37479
G1 X118.508 Y107.613 E61.40858
G1 X118.641 Y107.808 E61.42153
G1 X118.68 Y107.599 E61.4332
G1 X118.68 Y104.823 E61.58554
G1 X118.68 Y102.511 E61.71242
G1 X101.32 Y102.511 E62.66513
G1 X101.32 Y107.603 E62.94457
G1 X101.359 Y107.808 E62.95602
G0 F6000 X101.675 Y107.12
G1 F600 X101.594 Y107.039 E62.96231
G0 F6000 X102.234 Y106.901
G1 F600 X101.594 Y106.261 E63.01198
G0 F6000 X101.594 Y105.484
G1 F600 X102.97 Y106.859 E63.11874
G0 F6000 X103.748 Y106.859
G1 F600 X101.594 Y104.706 E63.28587
G0 F6000 X101.594 Y103.928
G1 F600 X104.525 Y106.859 E63.51335
G0 F6000 X105.303 Y106.859
G1 F600 X101.594 Y103.15 E63.80121
G0 F6000 X102.007 Y102.785
G1 F600 X106.081 Y106.859 E64.11739
G0 F6000 X106.859 Y106.859
G1 F600 X102.785 Y102.785 E64.43358
G0 F6000 X103.563 Y102.785
G1 F600 X107.637 Y106.859 E64.74977
G0 F6000 X108.415 Y106.859
G1 F600 X104.341 Y102.785 E65.06596
G0 F6000 X105.119 Y102.785
G1 F600 X109.192 Y106.859 E65.3821
G0 F6000 X109.97 Y106.859
G1 F600 X105.897 Y102.785 E65.69825
G0 F6000 X106.674 Y102.785
G1 F600 X110.748 Y106.859 E66.01444
G0 F6000 X111.526 Y106.859
G1 F600 X107.452 Y102.785 E66.33063
G0 F6000 X108.23 Y102.785
G1 F600 X112.304 Y106.859 E66.64681
G0 F6000 X113.081 Y106.859
G1 F600 X109.008 Y102.785 E66.96296
G0 F6000 X109.786 Y102.785
G1 F600 X113.859 Y106.859 E67.27911
G0 F6000 X114.637 Y106.859
G1 F600 X110.563 Y102.785 E67.5953
G0 F6000 X111.341 Y102.785
G1 F600 X115.415 Y106.859 E67.91148
G0 F6000 X116.193 Y106.859
G1 F600 X112.119 Y102.785 E68.22767
G0 F6000 X112.897 Y102.785
G1 F600 X116.971 Y106.859 E68.54386
G0 F6000 X117.799 Y106.909
